; G-Code generated by Simplify3D(R) Version 4.0.1
; Nov 2, 2018 at 7:14:38 PM
; Settings Summary
;   processName,Process1
;   applyToModels,LayerFanSupportV2
;   profileName,P3Steel 300x200 Autolevel DUET3D (modified)
;   profileVersion,2018-11-01 03:42:05
;   baseProfile,Default
;   printMaterial,PLA
;   printQuality,Medium
;   printExtruders,
;   extruderName,Primary Extruder
;   extruderToolheadNumber,0
;   extruderDiameter,0.4
;   extruderAutoWidth,0
;   extruderWidth,0.43
;   extrusionMultiplier,0.95
;   extruderUseRetract,1
;   extruderRetractionDistance,1.3
;   extruderExtraRestartDistance,0
;   extruderRetractionZLift,0
;   extruderRetractionSpeed,1800
;   extruderUseCoasting,1
;   extruderCoastingDistance,0.3
;   extruderUseWipe,1
;   extruderWipeDistance,1.2
;   primaryExtruder,0
;   layerHeight,0.2
;   topSolidLayers,3
;   bottomSolidLayers,3
;   perimeterOutlines,2
;   printPerimetersInsideOut,1
;   startPointOption,3
;   startPointOriginX,0
;   startPointOriginY,0
;   sequentialIslands,0
;   spiralVaseMode,0
;   firstLayerHeightPercentage,90
;   firstLayerWidthPercentage,95
;   firstLayerUnderspeed,0.5
;   useRaft,0
;   raftExtruder,0
;   raftTopLayers,1
;   raftBaseLayers,1
;   raftOffset,3
;   raftSeparationDistance,0.14
;   raftTopInfill,100
;   aboveRaftSpeedMultiplier,0.3
;   useSkirt,1
;   skirtExtruder,0
;   skirtLayers,1
;   skirtOutlines,1
;   skirtOffset,3
;   usePrimePillar,0
;   primePillarExtruder,999
;   primePillarWidth,12
;   primePillarLocation,7
;   primePillarSpeedMultiplier,1
;   useOozeShield,0
;   oozeShieldExtruder,999
;   oozeShieldOffset,2
;   oozeShieldOutlines,1
;   oozeShieldSidewallShape,1
;   oozeShieldSidewallAngle,30
;   oozeShieldSpeedMultiplier,1
;   infillExtruder,0
;   internalInfillPattern,Rectilinear
;   externalInfillPattern,Rectilinear
;   infillPercentage,35
;   outlineOverlapPercentage,25
;   infillExtrusionWidthPercentage,100
;   minInfillLength,2
;   infillLayerInterval,1
;   internalInfillAngles,45,-45
;   overlapInternalInfillAngles,0
;   externalInfillAngles,45,-45
;   generateSupport,1
;   supportExtruder,0
;   supportInfillPercentage,45
;   supportExtraInflation,0
;   supportBaseLayers,0
;   denseSupportExtruder,0
;   denseSupportLayers,0
;   denseSupportInfillPercentage,70
;   supportLayerInterval,1
;   supportHorizontalPartOffset,0.3
;   supportUpperSeparationLayers,1
;   supportLowerSeparationLayers,1
;   supportType,0
;   supportGridSpacing,4
;   maxOverhangAngle,89
;   supportAngles,0
;   temperatureName,Primary Extruder,Heated Bed
;   temperatureNumber,0,1
;   temperatureSetpointCount,1,1
;   temperatureSetpointLayers,1,1
;   temperatureSetpointTemperatures,195,50
;   temperatureStabilizeAtStartup,1,1
;   temperatureHeatedBed,0,1
;   temperatureRelayBetweenLayers,0,0
;   temperatureRelayBetweenLoops,0,0
;   fanLayers,1,2
;   fanSpeeds,0,100
;   blipFanToFullPower,0
;   adjustSpeedForCooling,1
;   minSpeedLayerTime,15
;   minCoolingSpeedSlowdown,20
;   increaseFanForCooling,0
;   minFanLayerTime,45
;   maxCoolingFanSpeed,100
;   increaseFanForBridging,0
;   bridgingFanSpeed,100
;   use5D,1
;   relativeEdistances,0
;   allowEaxisZeroing,1
;   independentExtruderAxes,0
;   includeM10123,0
;   stickySupport,1
;   applyToolheadOffsets,0
;   gcodeXoffset,0
;   gcodeYoffset,0
;   gcodeZoffset,0
;   overrideMachineDefinition,1
;   machineTypeOverride,0
;   strokeXoverride,212
;   strokeYoverride,305
;   strokeZoverride,220
;   originOffsetXoverride,0
;   originOffsetYoverride,0
;   originOffsetZoverride,0
;   homeXdirOverride,-1
;   homeYdirOverride,-1
;   homeZdirOverride,-1
;   flipXoverride,1
;   flipYoverride,-1
;   flipZoverride,1
;   toolheadOffsets,0,0|0,0|0,0|0,0|0,0|0,0
;   overrideFirmwareConfiguration,0
;   firmwareTypeOverride,RepRap (Marlin/Repetier/Sprinter)
;   GPXconfigOverride,r2
;   baudRateOverride,115200
;   overridePrinterModels,0
;   printerModelsOverride
;   startingGcode,G28 ; home all axes,G1 Z30 F3000,M106 S1 [Enciende ventilador de capa],M140 S[bed1_temperature],M104 S[extruder0_temperature],M109 S[extruder0_temperature],G29 S1,G92 E0,M106 S0 (Apaga Ventilador de capa ],G1 X0 Y0 Z0.2 F3000 ; go outside printing area,G1 X60.0 E9.0  F1000.0 ; intro line,G1 X100.0 E12.5  F1000.0 ; intro line,G92 E0
;   layerChangeGcode,
;   retractionGcode,
;   toolChangeGcode,
;   endingGcode,G28 Y0 X0 ,M104 S0 ; turn off extruder,M140 S0 ; turn off bed,M84 ; disable motors,M107 ; turn off fan,
;   exportFileFormat,gcode
;   celebration,0
;   celebrationSong,Star Wars
;   postProcessing,
;   defaultSpeed,4200
;   outlineUnderspeed,0.4
;   solidInfillUnderspeed,0.6
;   supportUnderspeed,0.7
;   rapidXYspeed,6000
;   rapidZspeed,900
;   minBridgingArea,50
;   bridgingExtraInflation,1
;   bridgingExtrusionMultiplier,0.8
;   bridgingSpeedMultiplier,1.2
;   useFixedBridgingAngle,0
;   fixedBridgingAngle,0
;   applyBridgingToPerimeters,0
;   filamentDiameters,1.75|1.75|1.75|1.75|1.75|1.75
;   filamentPricesPerKg,16|16|16|16|16|16
;   filamentDensities,1.25|1.25|1.25|1.25|1.25|1.25
;   useMinPrintHeight,0
;   minPrintHeight,0
;   useMaxPrintHeight,0
;   maxPrintHeight,50
;   useDiaphragm,0
;   diaphragmLayerInterval,20
;   robustSlicing,1
;   mergeAllIntoSolid,0
;   onlyRetractWhenCrossingOutline,1
;   retractBetweenLayers,1
;   useRetractionMinTravel,1
;   retractionMinTravel,3
;   retractWhileWiping,1
;   onlyWipeOutlines,1
;   avoidCrossingOutline,1
;   maxMovementDetourFactor,5
;   toolChangeRetractionDistance,12
;   toolChangeExtraRestartDistance,-0.5
;   toolChangeRetractionSpeed,600
;   externalThinWallType,0
;   internalThinWallType,1
;   thinWallAllowedOverlapPercentage,10
;   singleExtrusionMinLength,1
;   singleExtrusionMinPrintingWidthPercentage,50
;   singleExtrusionMaxPrintingWidthPercentage,200
;   singleExtrusionEndpointExtension,0.2
;   horizontalSizeCompensation,0
G90
M82
G28 ; home all axes
G1 Z30 F3000
M106 S1 [Enciende ventilador de capa]
M140 S50
M104 S195
M109 S195
G29 S1
G92 E0
M106 S0 (Apaga Ventilador de capa ]
G1 X0 Y0 Z0.2 F3000 ; go outside printing area
G1 X60.0 E9.0  F1000.0 ; intro line
G1 X100.0 E12.5  F1000.0 ; intro line
G92 E0
G92 E0
G1 E-1.3000 F1800
G1 Z0.180 F900
; process Process1
; layer 1, Z = 0.180
M106 S0
T0
; tool H0.200 W0.408
; skirt
G1 X95.082 Y120.464 F6000
G1 E0.0000 F540
G92 E0
G1 X95.161 Y120.432 E0.0028 F2100
G1 X102.211 Y120.432 E0.2303
G1 X102.290 Y120.464 E0.2330
G1 X104.108 Y122.282 E0.3160
G1 X104.141 Y122.361 E0.3188
G1 X104.141 Y129.412 E0.5463
G1 X104.108 Y129.491 E0.5490
G1 X103.844 Y129.755 E0.5611
G1 X103.844 Y130.242 E0.5768
G1 X103.811 Y130.321 E0.5796
G1 X103.683 Y130.449 E0.5854
G1 X103.683 Y130.634 E0.5914
G1 X103.706 Y130.657 E0.5924
G1 X103.738 Y130.736 E0.5952
G1 X103.738 Y136.784 E0.7904
G1 X103.903 Y136.949 E0.7979
G1 X103.936 Y137.028 E0.8006
G1 X103.936 Y144.079 E1.0282
G1 X103.903 Y144.158 E1.0309
G1 X103.893 Y144.169 E1.0314
G1 X103.893 Y145.753 E1.0825
G1 X103.925 Y145.831 E1.0852
G1 X103.925 Y147.933 E1.1531
G1 X118.428 Y147.931 E1.6211
G1 X118.507 Y147.964 E1.6238
G1 X120.325 Y149.782 E1.7068
G1 X120.358 Y149.861 E1.7096
G1 X120.358 Y150.673 E1.7358
G1 X123.204 Y150.673 E1.8276
G1 X123.283 Y150.706 E1.8304
G1 X125.100 Y152.524 E1.9133
G1 X125.133 Y152.603 E1.9161
G1 X125.133 Y159.654 E2.1436
G1 X125.100 Y159.733 E2.1464
G1 X124.450 Y160.383 E2.1760
G1 X125.227 Y161.160 E2.2115
G1 X125.260 Y161.239 E2.2143
G1 X125.260 Y168.290 E2.4418
G1 X125.227 Y168.369 E2.4445
G1 X124.941 Y168.655 E2.4576
G1 X125.208 Y168.922 E2.4698
G1 X125.241 Y169.001 E2.4726
G1 X125.241 Y171.515 E2.5537
G1 X125.285 Y171.534 E2.5552
G1 X125.373 Y171.622 E2.5592
G1 X128.221 Y171.622 E2.6511
G1 X128.262 Y171.639 E2.6526
G1 X133.119 Y171.639 E2.8093
G1 X133.198 Y171.671 E2.8120
G1 X135.015 Y173.489 E2.8950
G1 X135.048 Y173.568 E2.8978
G1 X135.048 Y180.619 E3.1253
G1 X135.015 Y180.698 E3.1280
G1 X133.198 Y182.516 E3.2110
G1 X133.119 Y182.549 E3.2138
G1 X130.534 Y182.549 E3.2972
G1 X130.366 Y182.716 E3.3048
G1 X130.287 Y182.749 E3.3076
G1 X123.236 Y182.749 E3.5351
G1 X123.157 Y182.716 E3.5379
G1 X122.972 Y182.532 E3.5463
G1 X121.170 Y182.532 E3.6044
G1 X121.091 Y182.499 E3.6072
G1 X121.004 Y182.411 E3.6112
G1 X119.250 Y182.411 E3.6678
G1 X118.507 Y183.154 E3.7017
G1 X118.428 Y183.187 E3.7045
G1 X82.930 Y183.182 E4.8499
G1 X82.922 Y183.182 E4.8502
G1 X82.679 Y183.163 E4.8581
G1 X82.670 Y183.162 E4.8583
G1 X81.873 Y183.035 E4.8844
G1 X81.857 Y183.031 E4.8849
G1 X81.392 Y182.880 E4.9007
G1 X81.376 Y182.874 E4.9012
G1 X80.602 Y182.480 E4.9293
G1 X80.591 Y182.473 E4.9297
G1 X80.287 Y182.270 E4.9415
G1 X80.276 Y182.262 E4.9419
G1 X79.876 Y181.920 E4.9589
G1 X79.870 Y181.914 E4.9592
G1 X79.697 Y181.742 E4.9670
G1 X79.692 Y181.736 E4.9673
G1 X79.350 Y181.335 E4.9843
G1 X79.342 Y181.325 E4.9847
G1 X79.138 Y181.020 E4.9965
G1 X79.132 Y181.009 E4.9970
G1 X78.738 Y180.236 E5.0250
G1 X78.731 Y180.220 E5.0255
G1 X78.580 Y179.755 E5.0413
G1 X78.576 Y179.739 E5.0418
G1 X78.450 Y178.941 E5.0679
G1 X78.449 Y178.933 E5.0682
G1 X78.430 Y178.689 E5.0760
G1 X78.430 Y178.681 E5.0763
G1 X78.430 Y152.498 E5.9212
G1 X78.430 Y152.494 E5.9213
G1 X78.434 Y152.372 E5.9253
G1 X78.435 Y152.368 E5.9254
G1 X78.471 Y151.904 E5.9404
G1 X78.473 Y151.891 E5.9408
G1 X78.544 Y151.532 E5.9527
G1 X78.548 Y151.520 E5.9531
G1 X78.797 Y150.752 E5.9791
G1 X78.802 Y150.740 E5.9795
G1 X78.955 Y150.407 E5.9914
G1 X78.961 Y150.396 E5.9918
G1 X79.268 Y149.895 E6.0107
G1 X79.275 Y149.885 E6.0111
G1 X79.502 Y149.597 E6.0230
G1 X79.511 Y149.588 E6.0234
G1 X80.125 Y148.974 E6.0514
G1 X80.137 Y148.963 E6.0519
G1 X80.533 Y148.675 E6.0677
G1 X80.548 Y148.666 E6.0683
G1 X81.376 Y148.244 E6.0983
G1 X81.392 Y148.238 E6.0988
G1 X81.857 Y148.087 E6.1146
G1 X81.873 Y148.083 E6.1151
G1 X82.670 Y147.956 E6.1412
G1 X82.679 Y147.955 E6.1414
G1 X82.922 Y147.936 E6.1493
G1 X82.930 Y147.936 E6.1496
G1 X92.946 Y147.935 E6.4728
G1 X92.946 Y142.728 E6.6408
G1 X92.979 Y142.649 E6.6436
G1 X92.983 Y142.645 E6.6437
G1 X92.983 Y141.217 E6.6898
G1 X92.817 Y141.051 E6.6974
G1 X92.784 Y140.972 E6.7002
G1 X92.784 Y134.960 E6.8941
G1 X92.773 Y134.934 E6.8951
G1 X92.773 Y132.523 E6.9729
G1 X92.746 Y132.496 E6.9741
G1 X92.713 Y132.417 E6.9769
G1 X92.713 Y125.366 E7.2044
G1 X92.746 Y125.287 E7.2071
G1 X92.934 Y125.099 E7.2157
G1 X92.934 Y123.191 E7.2773
G1 X92.966 Y123.112 E7.2800
G1 X93.231 Y122.848 E7.2921
G1 X93.231 Y122.361 E7.3078
G1 X93.264 Y122.282 E7.3106
G1 X94.869 Y120.676 E7.3838
G1 X95.082 Y120.464 F2100
G92 E0
G1 E-1.3000 F1800
; inner perimeter
G1 X83.061 Y151.351 F6000
G1 X82.885 Y151.365 F6000
G1 X82.693 Y151.852 F6000
G1 E0.0000 F1800
G92 E0
G1 X82.808 Y151.804 E0.0040 F1470
G1 X82.929 Y151.775 E0.0080
G1 X83.077 Y151.764 E0.0128
G1 X116.530 Y151.759 E1.0923
G1 X116.530 Y179.359 E1.9829
G1 X83.077 Y179.354 E3.0624
G1 X82.929 Y179.343 E3.0672
G1 X82.808 Y179.314 E3.0712
G1 X82.692 Y179.266 E3.0752
G1 X82.586 Y179.201 E3.0793
G1 X82.492 Y179.120 E3.0833
G1 X82.411 Y179.025 E3.0873
G1 X82.346 Y178.919 E3.0913
G1 X82.298 Y178.804 E3.0953
G1 X82.269 Y178.683 E3.0994
G1 X82.257 Y178.535 E3.1042
G1 X82.257 Y152.583 E3.9416
G1 X82.269 Y152.435 E3.9464
G1 X82.298 Y152.314 E3.9504
G1 X82.346 Y152.199 E3.9544
G1 X82.411 Y152.093 E3.9584
G1 X82.459 Y152.037 E3.9608
G1 X82.492 Y151.998 F1470
G1 X82.586 Y151.917 F1470
G1 X82.693 Y151.852 F1470
; outer perimeter
G1 X82.507 Y151.487 F6000
G92 E0
G1 X82.681 Y151.415 E0.0061 F840
G1 X82.865 Y151.371 E0.0122
G1 X83.061 Y151.355 E0.0185
G1 X116.938 Y151.350 E1.1117
G1 X116.939 Y179.767 E2.0287
G1 X83.061 Y179.763 E3.1219
G1 X82.865 Y179.747 E3.1282
G1 X82.681 Y179.703 E3.1343
G1 X82.506 Y179.631 E3.1404
G1 X82.345 Y179.532 E3.1465
G1 X82.202 Y179.410 E3.1526
G1 X82.079 Y179.266 E3.1587
G1 X81.981 Y179.105 E3.1648
G1 X81.908 Y178.931 E3.1709
G1 X81.864 Y178.747 E3.1770
G1 X81.849 Y178.551 E3.1833
G1 X81.849 Y152.567 E4.0218
G1 X81.864 Y152.371 E4.0281
G1 X81.908 Y152.187 E4.0342
G1 X81.981 Y152.013 E4.0403
G1 X82.079 Y151.852 E4.0464
G1 X82.202 Y151.708 E4.0525
G1 X82.261 Y151.658 E4.0550
G1 X82.346 Y151.586 F840
G1 X82.507 Y151.487 F840
G1 X82.681 Y151.415 F4200
G1 X82.865 Y151.371 F4200
G1 X83.061 Y151.355 F4200
G1 X85.520 Y151.355 F4200
; inner perimeter
G1 X103.769 Y162.555 F6000
G92 E0
G1 X103.211 Y163.553 E0.0369 F1470
G1 X102.830 Y164.632 E0.0738
G1 X102.637 Y165.757 E0.1107
G1 X102.637 Y166.901 E0.1476
G1 X102.830 Y168.027 E0.1844
G1 X103.211 Y169.105 E0.2213
G1 X103.769 Y170.103 E0.2582
G1 X104.487 Y170.993 E0.2951
G1 X105.345 Y171.748 E0.3320
G1 X106.318 Y172.347 E0.3689
G1 X107.379 Y172.774 E0.4058
G1 X108.497 Y173.014 E0.4427
G1 X109.639 Y173.063 E0.4796
G1 X110.773 Y172.918 E0.5164
G1 X111.866 Y172.583 E0.5533
G1 X112.886 Y172.068 E0.5902
G1 X113.806 Y171.388 E0.6271
G1 X114.597 Y170.563 E0.6640
G1 X115.237 Y169.616 E0.7009
G1 X115.708 Y168.574 E0.7378
G1 X115.996 Y167.468 E0.7747
G1 X116.093 Y166.328 E0.8116
G1 X115.990 Y165.161 E0.8494
G1 X115.708 Y164.083 E0.8853
G1 X115.237 Y163.042 E0.9222
G1 X114.597 Y162.095 E0.9591
G1 X113.806 Y161.269 E0.9960
G1 X112.887 Y160.590 E1.0329
G1 X111.866 Y160.075 E1.0698
G1 X110.773 Y159.740 E1.1067
G1 X109.639 Y159.595 E1.1435
G1 X108.497 Y159.644 E1.1804
G1 X107.379 Y159.884 E1.2173
G1 X106.318 Y160.311 E1.2542
G1 X105.345 Y160.910 E1.2911
G1 X104.487 Y161.665 E1.3280
G1 X103.957 Y162.321 E1.3552
G1 X103.769 Y162.555 F1470
; outer perimeter
G1 X104.108 Y162.784 F6000
G92 E0
G1 X103.585 Y163.722 E0.0346 F840
G1 X103.227 Y164.735 E0.0693
G1 X103.046 Y165.792 E0.1039
G1 X103.046 Y166.866 E0.1386
G1 X103.227 Y167.924 E0.1732
G1 X103.585 Y168.936 E0.2079
G1 X104.108 Y169.874 E0.2425
G1 X104.783 Y170.709 E0.2772
G1 X105.589 Y171.418 E0.3118
G1 X106.503 Y171.981 E0.3464
G1 X107.499 Y172.382 E0.3811
G1 X108.549 Y172.608 E0.4157
G1 X109.621 Y172.653 E0.4504
G1 X110.686 Y172.517 E0.4850
G1 X111.713 Y172.202 E0.5197
G1 X112.672 Y171.719 E0.5543
G1 X113.535 Y171.081 E0.5890
G1 X114.278 Y170.306 E0.6236
G1 X114.879 Y169.416 E0.6583
G1 X115.321 Y168.438 E0.6929
G1 X115.592 Y167.399 E0.7275
G1 X115.683 Y166.329 E0.7622
G1 X115.586 Y165.231 E0.7977
G1 X115.321 Y164.220 E0.8315
G1 X114.879 Y163.242 E0.8661
G1 X114.278 Y162.352 E0.9008
G1 X113.535 Y161.577 E0.9354
G1 X112.672 Y160.939 E0.9701
G1 X111.713 Y160.455 E1.0047
G1 X110.686 Y160.141 E1.0393
G1 X109.621 Y160.005 E1.0740
G1 X108.549 Y160.050 E1.1086
G1 X107.499 Y160.276 E1.1433
G1 X106.503 Y160.677 E1.1779
G1 X105.589 Y161.240 E1.2126
G1 X104.783 Y161.949 E1.2472
G1 X104.297 Y162.551 E1.2722
G1 X104.108 Y162.784 F840
G1 X103.585 Y163.722 F4200
G1 X103.227 Y164.735 F4200
G1 X103.077 Y165.607 F4200
; solid layer
G1 X103.082 Y165.606 F6000
G1 X103.231 Y164.736 F6000
G1 X103.588 Y163.723 F6000
G1 X104.112 Y162.787 F6000
G1 X104.786 Y161.952 F6000
G1 X105.591 Y161.243 F6000
G1 X106.505 Y160.680 F6000
G1 X107.500 Y160.280 F6000
G1 X108.549 Y160.054 F6000
G1 X109.621 Y160.009 F6000
G1 X110.685 Y160.145 F6000
G1 X111.711 Y160.459 F6000
G1 X112.669 Y160.942 F6000
G1 X113.532 Y161.580 F6000
G1 X114.275 Y162.355 F6000
G1 X114.875 Y163.244 F6000
G1 X114.996 Y163.511 F6000
G1 X115.727 Y163.382 F6000
G92 E0
G1 X116.224 Y163.879 E0.0227 F1260
G1 X116.224 Y164.351 E0.0379
G1 X116.224 Y164.457 F1260
G1 X116.086 Y164.319 F1260
G1 X116.200 Y167.899 F6000
G92 E0
G1 X116.224 Y167.923 E0.0011 F1260
G1 X116.224 Y168.501 E0.0197
G1 X116.081 Y168.358 E0.0262
G1 X115.998 Y168.677 E0.0369
G1 X115.943 Y168.798 E0.0412
G1 X116.224 Y169.078 E0.0540
G1 X116.224 Y169.656 E0.0726
G1 X115.763 Y169.196 E0.0936
G1 X115.583 Y169.593 E0.1077
G1 X116.224 Y170.234 E0.1369
G1 X116.224 Y170.812 E0.1556
G1 X115.373 Y169.961 E0.1944
G1 X115.140 Y170.306 E0.2078
G1 X116.224 Y171.389 E0.2572
G1 X116.224 Y171.967 E0.2759
G1 X114.907 Y170.651 E0.3360
G1 X114.836 Y170.756 E0.3401
G1 X114.640 Y170.961 E0.3492
G1 X116.224 Y172.545 E0.4215
G1 X116.224 Y173.122 E0.4401
G1 X114.357 Y171.256 E0.5253
G1 X114.074 Y171.551 E0.5385
G1 X116.224 Y173.700 E0.6366
G1 X116.224 Y174.278 E0.6552
G1 X113.754 Y171.808 E0.7679
G1 X113.422 Y172.054 E0.7812
G1 X116.224 Y174.855 E0.9091
