; G-Code generated by Simplify3D(R) Version 4.0.1
; Oct 31, 2018 at 8:09:32 PM
; Settings Summary
;   processName,Process1
;   applyToModels,LayerFanSupport,SopBlower
;   profileName,P3Steel 300x200 Autolevel DUET3D (modified)
;   profileVersion,2018-10-30 23:58:48
;   baseProfile,Default
;   printMaterial,PLA
;   printQuality,Medium
;   printExtruders,
;   extruderName,Primary Extruder
;   extruderToolheadNumber,0
;   extruderDiameter,0.4
;   extruderAutoWidth,0
;   extruderWidth,0.43
;   extrusionMultiplier,0.95
;   extruderUseRetract,1
;   extruderRetractionDistance,1.3
;   extruderExtraRestartDistance,0
;   extruderRetractionZLift,0
;   extruderRetractionSpeed,1800
;   extruderUseCoasting,1
;   extruderCoastingDistance,0.3
;   extruderUseWipe,1
;   extruderWipeDistance,1.2
;   primaryExtruder,0
;   layerHeight,0.2
;   topSolidLayers,3
;   bottomSolidLayers,3
;   perimeterOutlines,2
;   printPerimetersInsideOut,1
;   startPointOption,3
;   startPointOriginX,0
;   startPointOriginY,0
;   sequentialIslands,0
;   spiralVaseMode,0
;   firstLayerHeightPercentage,90
;   firstLayerWidthPercentage,95
;   firstLayerUnderspeed,0.5
;   useRaft,0
;   raftExtruder,0
;   raftTopLayers,1
;   raftBaseLayers,1
;   raftOffset,3
;   raftSeparationDistance,0.14
;   raftTopInfill,100
;   aboveRaftSpeedMultiplier,0.3
;   useSkirt,1
;   skirtExtruder,0
;   skirtLayers,1
;   skirtOutlines,1
;   skirtOffset,3
;   usePrimePillar,0
;   primePillarExtruder,999
;   primePillarWidth,12
;   primePillarLocation,7
;   primePillarSpeedMultiplier,1
;   useOozeShield,0
;   oozeShieldExtruder,999
;   oozeShieldOffset,2
;   oozeShieldOutlines,1
;   oozeShieldSidewallShape,1
;   oozeShieldSidewallAngle,30
;   oozeShieldSpeedMultiplier,1
;   infillExtruder,0
;   internalInfillPattern,Rectilinear
;   externalInfillPattern,Rectilinear
;   infillPercentage,45
;   outlineOverlapPercentage,25
;   infillExtrusionWidthPercentage,100
;   minInfillLength,2
;   infillLayerInterval,1
;   internalInfillAngles,45,-45
;   overlapInternalInfillAngles,0
;   externalInfillAngles,45,-45
;   generateSupport,1
;   supportExtruder,0
;   supportInfillPercentage,45
;   supportExtraInflation,0
;   supportBaseLayers,0
;   denseSupportExtruder,0
;   denseSupportLayers,0
;   denseSupportInfillPercentage,70
;   supportLayerInterval,1
;   supportHorizontalPartOffset,0.3
;   supportUpperSeparationLayers,1
;   supportLowerSeparationLayers,1
;   supportType,0
;   supportGridSpacing,4
;   maxOverhangAngle,89
;   supportAngles,0
;   temperatureName,Primary Extruder,Heated Bed
;   temperatureNumber,0,1
;   temperatureSetpointCount,1,1
;   temperatureSetpointLayers,1,1
;   temperatureSetpointTemperatures,195,50
;   temperatureStabilizeAtStartup,1,1
;   temperatureHeatedBed,0,1
;   temperatureRelayBetweenLayers,0,0
;   temperatureRelayBetweenLoops,0,0
;   fanLayers,1,2
;   fanSpeeds,0,100
;   blipFanToFullPower,0
;   adjustSpeedForCooling,1
;   minSpeedLayerTime,15
;   minCoolingSpeedSlowdown,20
;   increaseFanForCooling,0
;   minFanLayerTime,45
;   maxCoolingFanSpeed,100
;   increaseFanForBridging,0
;   bridgingFanSpeed,100
;   use5D,1
;   relativeEdistances,0
;   allowEaxisZeroing,1
;   independentExtruderAxes,0
;   includeM10123,0
;   stickySupport,1
;   applyToolheadOffsets,0
;   gcodeXoffset,0
;   gcodeYoffset,0
;   gcodeZoffset,0
;   overrideMachineDefinition,1
;   machineTypeOverride,0
;   strokeXoverride,212
;   strokeYoverride,305
;   strokeZoverride,220
;   originOffsetXoverride,0
;   originOffsetYoverride,0
;   originOffsetZoverride,0
;   homeXdirOverride,-1
;   homeYdirOverride,-1
;   homeZdirOverride,-1
;   flipXoverride,1
;   flipYoverride,-1
;   flipZoverride,1
;   toolheadOffsets,0,0|0,0|0,0|0,0|0,0|0,0
;   overrideFirmwareConfiguration,0
;   firmwareTypeOverride,RepRap (Marlin/Repetier/Sprinter)
;   GPXconfigOverride,r2
;   baudRateOverride,115200
;   overridePrinterModels,0
;   printerModelsOverride
;   startingGcode,G28 ; home all axes,G1 Z30 F3000,M106 S1 [Enciende ventilador de capa],M140 S[bed1_temperature],M104 S[extruder0_temperature],M109 S[extruder0_temperature],G29 S1,G92 E0,M106 S0 (Apaga Ventilador de capa ],G1 X0 Y0 Z0.2 F3000 ; go outside printing area,G1 X60.0 E9.0  F1000.0 ; intro line,G1 X100.0 E12.5  F1000.0 ; intro line,G92 E0
;   layerChangeGcode,
;   retractionGcode,
;   toolChangeGcode,
;   endingGcode,G28 Y0 X0 ,M104 S0 ; turn off extruder,M140 S0 ; turn off bed,M84 ; disable motors,M107 ; turn off fan,
;   exportFileFormat,gcode
;   celebration,0
;   celebrationSong,Star Wars
;   postProcessing,
;   defaultSpeed,4200
;   outlineUnderspeed,0.4
;   solidInfillUnderspeed,0.6
;   supportUnderspeed,0.7
;   rapidXYspeed,6000
;   rapidZspeed,900
;   minBridgingArea,50
;   bridgingExtraInflation,1
;   bridgingExtrusionMultiplier,0.8
;   bridgingSpeedMultiplier,1.2
;   useFixedBridgingAngle,0
;   fixedBridgingAngle,0
;   applyBridgingToPerimeters,0
;   filamentDiameters,1.75|1.75|1.75|1.75|1.75|1.75
;   filamentPricesPerKg,16|16|16|16|16|16
;   filamentDensities,1.25|1.25|1.25|1.25|1.25|1.25
;   useMinPrintHeight,0
;   minPrintHeight,0
;   useMaxPrintHeight,0
;   maxPrintHeight,50
;   useDiaphragm,0
;   diaphragmLayerInterval,20
;   robustSlicing,1
;   mergeAllIntoSolid,0
;   onlyRetractWhenCrossingOutline,1
;   retractBetweenLayers,1
;   useRetractionMinTravel,1
;   retractionMinTravel,3
;   retractWhileWiping,1
;   onlyWipeOutlines,1
;   avoidCrossingOutline,1
;   maxMovementDetourFactor,5
;   toolChangeRetractionDistance,12
;   toolChangeExtraRestartDistance,-0.5
;   toolChangeRetractionSpeed,600
;   externalThinWallType,0
;   internalThinWallType,1
;   thinWallAllowedOverlapPercentage,10
;   singleExtrusionMinLength,1
;   singleExtrusionMinPrintingWidthPercentage,50
;   singleExtrusionMaxPrintingWidthPercentage,200
;   singleExtrusionEndpointExtension,0.2
;   horizontalSizeCompensation,0
G90
M82
G28 ; home all axes
G1 Z30 F3000
M106 S1 [Enciende ventilador de capa]
M140 S50
M104 S195
M109 S195
G29 S1
G92 E0
M106 S0 (Apaga Ventilador de capa ]
G1 X0 Y0 Z0.2 F3000 ; go outside printing area
G1 X60.0 E9.0  F1000.0 ; intro line
G1 X100.0 E12.5  F1000.0 ; intro line
G92 E0
G92 E0
G1 E-1.3000 F1800
G1 Z0.180 F900
; process Process1
; layer 1, Z = 0.180
M106 S0
T0
; tool H0.200 W0.408
; skirt
G1 X94.237 Y122.864 F6000
G1 E0.0000 F540
G92 E0
G1 X94.316 Y122.832 E0.0028 F2100
G1 X101.367 Y122.832 E0.2303
G1 X101.446 Y122.864 E0.2330
G1 X103.264 Y124.682 E0.3160
G1 X103.297 Y124.761 E0.3188
G1 X103.297 Y131.812 E0.5463
G1 X103.264 Y131.891 E0.5490
G1 X103.233 Y131.922 E0.5505
G1 X103.233 Y132.690 E0.5752
G1 X103.200 Y132.769 E0.5780
G1 X102.832 Y133.137 E0.5948
G1 X102.832 Y135.093 E0.6579
G1 X102.799 Y135.172 E0.6607
G1 X102.499 Y135.471 E0.6743
G1 X102.498 Y135.734 E0.6828
G1 X120.705 Y135.734 E1.2703
G1 X120.775 Y135.664 E1.2735
G1 X120.854 Y135.632 E1.2762
G1 X127.905 Y135.632 E1.5038
G1 X127.984 Y135.664 E1.5065
G1 X129.802 Y137.482 E1.5895
G1 X129.835 Y137.561 E1.5923
G1 X129.835 Y139.802 E1.6646
G1 X129.839 Y145.566 E1.8506
G1 X129.807 Y145.645 E1.8533
G1 X127.989 Y147.464 E1.9363
G1 X127.910 Y147.497 E1.9391
G1 X126.413 Y147.497 E1.9874
G1 X126.413 Y153.209 E2.1717
G1 X127.645 Y153.209 E2.2114
G1 X127.724 Y153.241 E2.2142
G1 X129.542 Y155.059 E2.2972
G1 X129.575 Y155.138 E2.2999
G1 X129.575 Y156.440 E2.3419
G1 X129.637 Y156.503 E2.3448
G1 X129.670 Y156.582 E2.3476
G1 X129.670 Y163.633 E2.5751
G1 X129.637 Y163.712 E2.5778
G1 X129.349 Y164.000 E2.5910
G1 X129.349 Y165.636 E2.6438
G1 X129.456 Y165.625 E2.6473
G1 X129.561 Y165.671 E2.6510
G1 X131.672 Y168.524 E2.7655
G1 X131.685 Y168.637 E2.7692
G1 X127.620 Y178.178 E3.1038
G1 X127.588 Y178.220 E3.1055
G1 X126.370 Y179.196 E3.1559
G1 X126.321 Y179.218 E3.1576
G1 X124.131 Y179.624 E3.2295
G1 X124.122 Y179.625 E3.2298
G1 X123.843 Y179.652 E3.2388
G1 X123.833 Y179.652 E3.2391
G1 X87.651 Y179.758 E4.4067
G1 X85.547 Y180.973 E4.4851
G1 X85.462 Y180.984 E4.4879
G1 X82.980 Y180.320 E4.5708
G1 X82.912 Y180.268 E4.5735
G1 X82.047 Y178.773 E4.6293
G1 X82.039 Y178.756 E4.6299
G1 X81.857 Y178.270 E4.6466
G1 X81.852 Y178.252 E4.6472
G1 X80.649 Y172.018 E4.8521
G1 X80.657 Y171.952 E4.8543
G1 X81.481 Y170.145 E4.9183
G1 X81.526 Y170.096 E4.9205
G1 X83.783 Y168.793 E5.0046
G1 X83.867 Y168.781 E5.0073
G1 X86.342 Y169.437 E5.0899
G1 X86.410 Y169.488 E5.0927
G1 X86.808 Y170.167 E5.1181
G1 X115.008 Y167.164 E6.0332
G1 X100.157 Y167.164 E6.5124
G1 X100.078 Y167.131 E6.5152
G1 X98.308 Y165.361 E6.5960
G1 X96.539 Y167.131 E6.6767
G1 X96.459 Y167.164 E6.6795
G1 X83.059 Y167.164 E7.1119
G1 X82.980 Y167.131 E7.1147
G1 X81.162 Y165.313 E7.1976
G1 X81.129 Y165.234 E7.2004
G1 X81.129 Y137.663 E8.0901
G1 X81.162 Y137.584 E8.0928
G1 X82.980 Y135.766 E8.1758
G1 X83.059 Y135.734 E8.1785
G1 X91.585 Y135.734 E8.4537
G1 X91.600 Y131.280 E8.5974
G1 X91.633 Y131.202 E8.6001
G1 X91.922 Y130.914 E8.6133
G1 X91.922 Y128.042 E8.7060
G1 X91.955 Y127.963 E8.7087
G1 X92.323 Y127.595 E8.7255
G1 X92.323 Y125.640 E8.7886
G1 X92.355 Y125.561 E8.7914
G1 X92.386 Y125.530 E8.7928
G1 X92.386 Y124.761 E8.8176
G1 X92.419 Y124.682 E8.8203
G1 X94.025 Y123.076 E8.8936
G1 X94.237 Y122.864 F2100
G92 E0
G1 E-1.3000 F1800
; inner perimeter
G1 X94.973 Y139.149 F6000
G1 X85.186 Y139.149 F6000
G1 X84.957 Y139.561 F6000
G1 E0.0000 F1800
G92 E0
G1 X94.560 Y139.561 E0.3099 F1470
G1 X94.561 Y163.336 E1.0771
G1 X84.957 Y163.336 E1.3870
G1 X84.957 Y139.861 E2.1445
G1 X84.957 Y139.561 F1470
; outer perimeter
G1 X84.548 Y139.153 F6000
G92 E0
G1 X94.969 Y139.153 E0.3363 F840
G1 X94.970 Y163.744 E1.1298
G1 X84.548 Y163.744 E1.4661
G1 X84.548 Y139.453 E2.2499
G1 X84.548 Y139.153 F840
G1 X87.582 Y139.153 F4200
; solid layer
G1 X93.945 Y139.868 F6000
G92 E0
G1 X94.254 Y140.176 E0.0141 F1260
G1 X94.254 Y140.754 E0.0327
G1 X93.368 Y139.868 E0.0732
G1 X92.790 Y139.868 E0.0918
G1 X94.254 Y141.332 E0.1586
G1 X94.254 Y141.910 E0.1773
G1 X92.212 Y139.868 E0.2704
G1 X91.635 Y139.868 E0.2891
G1 X94.254 Y142.487 E0.4086
G1 X94.254 Y143.065 E0.4273
G1 X91.057 Y139.868 E0.5732
G1 X90.479 Y139.868 E0.5918
G1 X94.254 Y143.643 E0.7641
G1 X94.254 Y144.220 E0.7827
G1 X89.902 Y139.868 E0.9814
G1 X89.324 Y139.868 E1.0000
G1 X94.254 Y144.798 E1.2250
G1 X94.254 Y145.376 E1.2436
G1 X88.746 Y139.868 E1.4950
G1 X88.168 Y139.868 E1.5136
G1 X94.254 Y145.954 E1.7914
G1 X94.254 Y146.531 E1.8100
G1 X87.591 Y139.868 E2.1141
G1 X87.013 Y139.868 E2.1327
G1 X94.254 Y147.109 E2.4632
G1 X94.254 Y147.687 E2.4818
G1 X86.435 Y139.868 E2.8387
G1 X85.858 Y139.868 E2.8573
G1 X94.254 Y148.265 E3.2405
G1 X94.254 Y148.842 E3.2591
G1 X85.280 Y139.868 E3.6687
G1 X85.263 Y139.868 E3.6692
G1 X85.263 Y140.429 E3.6873
G1 X94.254 Y149.420 E4.0976
G1 X94.254 Y149.998 E4.1163
G1 X85.263 Y141.006 E4.5266
G1 X85.263 Y141.584 E4.5452
G1 X94.254 Y150.575 E4.9555
G1 X94.254 Y151.153 E4.9742
G1 X85.263 Y142.162 E5.3845
G1 X85.263 Y142.740 E5.4031
G1 X94.254 Y151.731 E5.8134
G1 X94.255 Y152.309 E5.8321
G1 X85.263 Y143.317 E6.2424
G1 X85.263 Y143.895 E6.2610
G1 X94.255 Y152.886 E6.6714
G1 X94.255 Y153.464 E6.6900
G1 X85.263 Y144.473 E7.1003
G1 X85.263 Y145.050 E7.1190
G1 X94.255 Y154.042 E7.5293
G1 X94.255 Y154.620 E7.5479
G1 X85.263 Y145.628 E7.9582
G1 X85.263 Y146.206 E7.9769
G1 X94.255 Y155.197 E8.3872
G1 X94.255 Y155.775 E8.4058
G1 X85.263 Y146.784 E8.8162
G1 X85.263 Y147.361 E8.8348
G1 X94.255 Y156.353 E9.2451
G1 X94.255 Y156.930 E9.2638
G1 X85.263 Y147.939 E9.6741
G1 X85.263 Y148.517 E9.6927
G1 X94.255 Y157.508 E10.1030
G1 X94.255 Y158.086 E10.1217
G1 X85.263 Y149.094 E10.5320
G1 X85.263 Y149.672 E10.5507
G1 X94.255 Y158.664 E10.9610
G1 X94.255 Y159.241 E10.9796
G1 X85.263 Y150.250 E11.3900
G1 X85.263 Y150.827 E11.4086
G1 X94.255 Y159.819 E11.8189
G1 X94.255 Y160.397 E11.8376
G1 X85.263 Y151.405 E12.2479
G1 X85.263 Y151.983 E12.2665
G1 X94.255 Y160.975 E12.6769
G1 X94.255 Y161.552 E12.6955
G1 X85.263 Y152.561 E13.1058
G1 X85.263 Y153.138 E13.1245
G1 X94.255 Y162.130 E13.5348
G1 X94.255 Y162.708 E13.5534
G1 X85.263 Y153.716 E13.9638
G1 X85.263 Y154.294 E13.9824
G1 X93.999 Y163.030 E14.3811
G1 X93.421 Y163.030 E14.3997
G1 X85.263 Y154.871 E14.7720
G1 X85.263 Y155.449 E14.7907
G1 X92.844 Y163.030 E15.1366
G1 X92.266 Y163.030 E15.1552
G1 X85.263 Y156.027 E15.4748
G1 X85.263 Y156.605 E15.4934
G1 X91.688 Y163.030 E15.7866
G1 X91.110 Y163.030 E15.8053
G1 X85.263 Y157.182 E16.0721
G1 X85.263 Y157.760 E16.0907
G1 X90.533 Y163.030 E16.3312
G1 X89.955 Y163.030 E16.3499
G1 X85.263 Y158.338 E16.5640
G1 X85.263 Y158.915 E16.5826
G1 X89.377 Y163.030 E16.7704
G1 X88.800 Y163.030 E16.7890
G1 X85.263 Y159.493 E16.9504
G1 X85.263 Y160.071 E16.9690
G1 X88.222 Y163.030 E17.1040
G1 X87.644 Y163.030 E17.1227
G1 X85.263 Y160.649 E17.2313
G1 X85.263 Y161.226 E17.2500
G1 X87.067 Y163.030 E17.3323
G1 X86.489 Y163.030 E17.3509
G1 X85.263 Y161.804 E17.4069
G1 X85.263 Y162.382 E17.4255
G1 X85.911 Y163.030 E17.4551
G1 X85.534 Y163.030 E17.4672
G1 X85.333 Y163.030 F1260
G1 X85.263 Y162.959 F1260
G92 E0
G1 E-1.3000 F1800
; inner perimeter
G1 X84.949 Y174.098 F6000
G1 E0.0000 F1800
G92 E0
G1 X85.257 Y174.167 E0.0102 F1470
G1 X85.443 Y174.162 E0.0162
G1 X127.059 Y169.729 E1.3667
G1 X124.533 Y175.657 E1.5746
G1 X123.626 Y175.825 E1.6044
G1 X86.620 Y175.933 E2.7985
G1 X85.435 Y176.618 E2.8426
G1 X85.006 Y174.393 E2.9158
G1 X84.949 Y174.098 F1470
; outer perimeter
G1 X85.084 Y173.710 F6000
G92 E0
G1 X85.296 Y173.757 E0.0070 F840
G1 X85.415 Y173.754 E0.0109
G1 X127.708 Y169.250 E1.3833
G1 X124.823 Y176.018 E1.6207
G1 X123.664 Y176.233 E1.6588
G1 X86.730 Y176.342 E2.8506
G1 X85.143 Y177.258 E2.9097
G1 X84.231 Y172.533 E3.0650
G1 X84.798 Y173.502 E3.1012
G1 X84.839 Y173.540 E3.1031
G1 X84.942 Y173.634 F840
G1 X85.084 Y173.710 F840
G1 X85.296 Y173.757 F4200
G1 X85.415 Y173.754 F4200
G1 X88.097 Y173.468 F4200
; solid layer
G1 X85.636 Y176.042 F6000
G92 E0
G1 X85.703 Y176.109 E0.0031 F1260
G1 X86.070 Y175.898 E0.0167
G1 X85.498 Y175.326 E0.0428
G1 X85.360 Y174.610 E0.0663
G1 X86.436 Y175.686 E0.1155
G1 X86.538 Y175.627 E0.1193
G1 X86.954 Y175.626 E0.1327
G1 X85.763 Y174.436 E0.1870
G1 X86.285 Y174.380 E0.2039
G1 X87.530 Y175.624 E0.2607
G1 X88.106 Y175.623 E0.2793
G1 X86.808 Y174.325 E0.3385
G1 X87.330 Y174.269 E0.3555
G1 X88.682 Y175.621 E0.4172
G1 X89.258 Y175.619 E0.4358
G1 X87.852 Y174.214 E0.4999
G1 X88.374 Y174.158 E0.5169
G1 X89.834 Y175.618 E0.5835
G1 X90.410 Y175.616 E0.6021
G1 X88.896 Y174.102 E0.6711
G1 X89.418 Y174.047 E0.6881
G1 X90.986 Y175.614 E0.7596
G1 X91.562 Y175.613 E0.7782
G1 X89.940 Y173.991 E0.8522
G1 X90.462 Y173.935 E0.8691
G1 X92.138 Y175.611 E0.9456
G1 X92.714 Y175.609 E0.9642
G1 X90.984 Y173.880 E1.0431
G1 X91.506 Y173.824 E1.0600
G1 X93.290 Y175.608 E1.1414
G1 X93.866 Y175.606 E1.1600
G1 X92.029 Y173.769 E1.2439
G1 X92.551 Y173.713 E1.2608
G1 X94.442 Y175.604 E1.3471
G1 X95.018 Y175.602 E1.3657
G1 X93.073 Y173.657 E1.4544
G1 X93.595 Y173.602 E1.4714
G1 X95.594 Y175.601 E1.5626
G1 X96.170 Y175.599 E1.5812
G1 X94.117 Y173.546 E1.6749
G1 X94.639 Y173.491 E1.6918
G1 X96.746 Y175.597 E1.7880
G1 X97.322 Y175.596 E1.8065
G1 X95.161 Y173.435 E1.9051
G1 X95.683 Y173.379 E1.9221
G1 X97.898 Y175.594 E2.0232
G1 X98.474 Y175.592 E2.0417
G1 X96.205 Y173.324 E2.1453
G1 X96.727 Y173.268 E2.1622
G1 X99.050 Y175.591 E2.2682
G1 X99.626 Y175.589 E2.2868
G1 X97.250 Y173.213 E2.3952
G1 X97.772 Y173.157 E2.4122
G1 X100.202 Y175.587 E2.5231
G1 X100.778 Y175.586 E2.5417
G1 X98.294 Y173.101 E2.6550
G1 X98.816 Y173.046 E2.6720
G1 X101.354 Y175.584 E2.7878
G1 X101.930 Y175.582 E2.8064
G1 X99.338 Y172.990 E2.9247
G1 X99.860 Y172.935 E2.9416
G1 X102.506 Y175.580 E3.0624
G1 X103.082 Y175.579 E3.0809
G1 X100.382 Y172.879 E3.2041
G1 X100.904 Y172.823 E3.2211
G1 X103.658 Y175.577 E3.3468
G1 X104.234 Y175.575 E3.3653
G1 X101.426 Y172.768 E3.4935
G1 X101.948 Y172.712 E3.5104
G1 X104.810 Y175.574 E3.6410
G1 X105.386 Y175.572 E3.6596
G1 X102.471 Y172.656 E3.7926
G1 X102.993 Y172.601 E3.8096
G1 X105.962 Y175.570 E3.9451
G1 X106.538 Y175.569 E3.9637
G1 X103.515 Y172.545 E4.1016
G1 X104.037 Y172.490 E4.1186
G1 X107.114 Y175.567 E4.2590
G1 X107.690 Y175.565 E4.2776
