; G-Code generated by Simplify3D(R) Version 4.0.1
; Oct 31, 2018 at 2:14:56 PM
; Settings Summary
;   processName,Process1
;   applyToModels,Ripple_test,Ripple_test(2)
;   profileName,P3Steel 300x200 Autolevel DUET3D
;   profileVersion,2018-10-30 23:58:48
;   baseProfile,Default
;   printMaterial,PLA
;   printQuality,Medium
;   printExtruders,
;   extruderName,Primary Extruder
;   extruderToolheadNumber,0
;   extruderDiameter,0.4
;   extruderAutoWidth,0
;   extruderWidth,0.43
;   extrusionMultiplier,0.95
;   extruderUseRetract,1
;   extruderRetractionDistance,1.3
;   extruderExtraRestartDistance,0
;   extruderRetractionZLift,0
;   extruderRetractionSpeed,1800
;   extruderUseCoasting,1
;   extruderCoastingDistance,0.3
;   extruderUseWipe,1
;   extruderWipeDistance,1.2
;   primaryExtruder,0
;   layerHeight,0.18
;   topSolidLayers,3
;   bottomSolidLayers,3
;   perimeterOutlines,2
;   printPerimetersInsideOut,1
;   startPointOption,3
;   startPointOriginX,0
;   startPointOriginY,0
;   sequentialIslands,0
;   spiralVaseMode,0
;   firstLayerHeightPercentage,90
;   firstLayerWidthPercentage,95
;   firstLayerUnderspeed,0.5
;   useRaft,0
;   raftExtruder,0
;   raftTopLayers,1
;   raftBaseLayers,1
;   raftOffset,3
;   raftSeparationDistance,0.14
;   raftTopInfill,100
;   aboveRaftSpeedMultiplier,0.3
;   useSkirt,1
;   skirtExtruder,0
;   skirtLayers,1
;   skirtOutlines,1
;   skirtOffset,3
;   usePrimePillar,0
;   primePillarExtruder,999
;   primePillarWidth,12
;   primePillarLocation,7
;   primePillarSpeedMultiplier,1
;   useOozeShield,0
;   oozeShieldExtruder,999
;   oozeShieldOffset,2
;   oozeShieldOutlines,1
;   oozeShieldSidewallShape,1
;   oozeShieldSidewallAngle,30
;   oozeShieldSpeedMultiplier,1
;   infillExtruder,0
;   internalInfillPattern,Rectilinear
;   externalInfillPattern,Rectilinear
;   infillPercentage,15
;   outlineOverlapPercentage,25
;   infillExtrusionWidthPercentage,100
;   minInfillLength,2
;   infillLayerInterval,1
;   internalInfillAngles,45,-45
;   overlapInternalInfillAngles,0
;   externalInfillAngles,45,-45
;   generateSupport,0
;   supportExtruder,0
;   supportInfillPercentage,45
;   supportExtraInflation,0
;   supportBaseLayers,0
;   denseSupportExtruder,0
;   denseSupportLayers,0
;   denseSupportInfillPercentage,70
;   supportLayerInterval,1
;   supportHorizontalPartOffset,0.3
;   supportUpperSeparationLayers,1
;   supportLowerSeparationLayers,1
;   supportType,0
;   supportGridSpacing,4
;   maxOverhangAngle,89
;   supportAngles,0
;   temperatureName,Primary Extruder,Heated Bed
;   temperatureNumber,0,1
;   temperatureSetpointCount,1,1
;   temperatureSetpointLayers,1,1
;   temperatureSetpointTemperatures,190,50
;   temperatureStabilizeAtStartup,1,1
;   temperatureHeatedBed,0,1
;   temperatureRelayBetweenLayers,0,0
;   temperatureRelayBetweenLoops,0,0
;   fanLayers,1,2
;   fanSpeeds,0,100
;   blipFanToFullPower,0
;   adjustSpeedForCooling,1
;   minSpeedLayerTime,15
;   minCoolingSpeedSlowdown,20
;   increaseFanForCooling,0
;   minFanLayerTime,45
;   maxCoolingFanSpeed,100
;   increaseFanForBridging,0
;   bridgingFanSpeed,100
;   use5D,1
;   relativeEdistances,0
;   allowEaxisZeroing,1
;   independentExtruderAxes,0
;   includeM10123,0
;   stickySupport,1
;   applyToolheadOffsets,0
;   gcodeXoffset,0
;   gcodeYoffset,0
;   gcodeZoffset,0
;   overrideMachineDefinition,1
;   machineTypeOverride,0
;   strokeXoverride,212
;   strokeYoverride,305
;   strokeZoverride,220
;   originOffsetXoverride,0
;   originOffsetYoverride,0
;   originOffsetZoverride,0
;   homeXdirOverride,-1
;   homeYdirOverride,-1
;   homeZdirOverride,-1
;   flipXoverride,1
;   flipYoverride,-1
;   flipZoverride,1
;   toolheadOffsets,0,0|0,0|0,0|0,0|0,0|0,0
;   overrideFirmwareConfiguration,0
;   firmwareTypeOverride,RepRap (Marlin/Repetier/Sprinter)
;   GPXconfigOverride,r2
;   baudRateOverride,115200
;   overridePrinterModels,0
;   printerModelsOverride
;   startingGcode,G28 ; home all axes,G1 Z30 F3000,M106 S1 [Enciende ventilador de capa],M140 S[bed1_temperature],M104 S[extruder0_temperature],M109 S[extruder0_temperature],G29 S1,G92 E0,M106 S0 (Apaga Ventilador de capa ],G1 X0 Y0 Z0.2 F3000 ; go outside printing area,G1 X60.0 E9.0  F1000.0 ; intro line,G1 X100.0 E12.5  F1000.0 ; intro line,G92 E0
;   layerChangeGcode,
;   retractionGcode,
;   toolChangeGcode,
;   endingGcode,G28 Y0 X0 ,M104 S0 ; turn off extruder,M140 S0 ; turn off bed,M84 ; disable motors,M107 ; turn off fan,
;   exportFileFormat,gcode
;   celebration,0
;   celebrationSong,Star Wars
;   postProcessing,
;   defaultSpeed,4200
;   outlineUnderspeed,0.4
;   solidInfillUnderspeed,0.6
;   supportUnderspeed,0.7
;   rapidXYspeed,6000
;   rapidZspeed,900
;   minBridgingArea,50
;   bridgingExtraInflation,1
;   bridgingExtrusionMultiplier,0.8
;   bridgingSpeedMultiplier,1.2
;   useFixedBridgingAngle,0
;   fixedBridgingAngle,0
;   applyBridgingToPerimeters,0
;   filamentDiameters,1.75|1.75|1.75|1.75|1.75|1.75
;   filamentPricesPerKg,16|16|16|16|16|16
;   filamentDensities,1.25|1.25|1.25|1.25|1.25|1.25
;   useMinPrintHeight,0
;   minPrintHeight,0
;   useMaxPrintHeight,0
;   maxPrintHeight,50
;   useDiaphragm,0
;   diaphragmLayerInterval,20
;   robustSlicing,1
;   mergeAllIntoSolid,0
;   onlyRetractWhenCrossingOutline,1
;   retractBetweenLayers,1
;   useRetractionMinTravel,1
;   retractionMinTravel,3
;   retractWhileWiping,1
;   onlyWipeOutlines,1
;   avoidCrossingOutline,1
;   maxMovementDetourFactor,5
;   toolChangeRetractionDistance,12
;   toolChangeExtraRestartDistance,-0.5
;   toolChangeRetractionSpeed,600
;   externalThinWallType,0
;   internalThinWallType,1
;   thinWallAllowedOverlapPercentage,10
;   singleExtrusionMinLength,1
;   singleExtrusionMinPrintingWidthPercentage,50
;   singleExtrusionMaxPrintingWidthPercentage,200
;   singleExtrusionEndpointExtension,0.2
;   horizontalSizeCompensation,0
G90
M82
G28 ; home all axes
G1 Z30 F3000
M106 S1 [Enciende ventilador de capa]
M140 S50
M104 S190
M109 S190
G29 S1
G92 E0
M106 S0 (Apaga Ventilador de capa ]
G1 X0 Y0 Z0.2 F3000 ; go outside printing area
G1 X60.0 E9.0  F1000.0 ; intro line
G1 X100.0 E12.5  F1000.0 ; intro line
G92 E0
G92 E0
G1 E-1.3000 F1800
G1 Z0.162 F900
; process Process1
; layer 1, Z = 0.162
M106 S0
T0
; tool H0.180 W0.408
; skirt
G1 X13.630 Y9.243 F6000
G1 E0.0000 F540
G92 E0
G1 X15.448 Y7.425 E0.0747 F2100
G1 X15.527 Y7.392 E0.0771
G1 X38.098 Y7.392 E0.7326
G1 X38.177 Y7.425 E0.7351
G1 X39.995 Y9.243 E0.8098
G1 X40.027 Y9.322 E0.8123
G1 X40.027 Y31.893 E1.4678
G1 X39.995 Y31.972 E1.4702
G1 X38.177 Y33.790 E1.5449
G1 X38.098 Y33.822 E1.5474
G1 X15.527 Y33.822 E2.2029
G1 X15.448 Y33.790 E2.2054
G1 X13.630 Y31.972 E2.2800
G1 X13.597 Y31.893 E2.2825
G1 X13.597 Y9.536 E2.9318
G1 X13.597 Y9.322 F2100
G1 X13.630 Y9.243 F2100
G92 E0
G1 E-1.3000 F1800
G1 X17.012 Y10.807 F6000
G1 X17.012 Y14.408 F6000
G1 X20.612 Y19.905 F6000
G1 X20.612 Y26.807 F6000
G1 X25.133 Y26.807 F6000
G1 X180.212 Y263.616 F6000
G1 E0.0000 F1800
G92 E0
G1 X180.291 Y263.583 E0.0025 F2100
G1 X202.861 Y263.583 E0.6580
G1 X202.940 Y263.616 E0.6605
G1 X204.758 Y265.434 E0.7351
G1 X204.791 Y265.513 E0.7376
G1 X204.791 Y288.084 E1.3931
G1 X204.758 Y288.163 E1.3956
G1 X202.940 Y289.980 E1.4702
G1 X202.861 Y290.013 E1.4727
G1 X180.291 Y290.013 E2.1282
G1 X180.212 Y289.980 E2.1307
G1 X178.394 Y288.163 E2.2054
G1 X178.361 Y288.084 E2.2079
G1 X178.361 Y265.513 E2.8634
G1 X178.394 Y265.434 E2.8658
G1 X179.999 Y263.828 E2.9318
G1 X180.212 Y263.616 F2100
G92 E0
G1 E-1.3000 F1800
; inner perimeter
G1 X181.776 Y266.998 F6000
G1 X181.974 Y266.998 F6000
G1 X182.189 Y267.411 F6000
G1 E0.0000 F1800
G92 E0
G1 X200.963 Y267.411 E0.5452 F1470
G1 X200.963 Y286.185 E1.0905
G1 X182.189 Y286.185 E1.6357
G1 X182.189 Y267.711 E2.1723
G1 X182.189 Y267.411 F1470
; outer perimeter
G1 X181.780 Y267.002 F6000
G92 E0
G1 X201.372 Y267.002 E0.5690 F840
G1 X201.372 Y286.594 E1.1379
G1 X181.780 Y286.594 E1.7069
G1 X181.780 Y267.302 E2.2672
G1 X181.780 Y267.002 F840
G1 X184.814 Y267.002 F4200
; inner perimeter
G1 X184.963 Y270.185 F6000
G92 E0
G1 X184.963 Y283.411 E0.3841 F1470
G1 X198.189 Y283.411 E0.7682
G1 X198.189 Y270.185 E1.1523
G1 X185.263 Y270.185 E1.5277
G1 X184.963 Y270.185 F1470
; outer perimeter
G1 X185.372 Y270.594 F6000
G92 E0
G1 X185.372 Y283.002 E0.3604 F840
G1 X197.780 Y283.002 E0.7207
G1 X197.780 Y270.594 E1.0811
G1 X185.672 Y270.594 E1.4327
G1 X185.372 Y270.594 F840
G1 X185.372 Y273.627 F4200
; solid layer
G1 X184.705 Y283.717 F6000
G92 E0
G1 X186.867 Y285.879 E0.0888 F1260
G1 X187.444 Y285.879 E0.1056
G1 X185.283 Y283.717 E0.1943
G1 X185.860 Y283.717 E0.2111
G1 X188.022 Y285.879 E0.2999
G1 X188.600 Y285.879 E0.3167
G1 X186.438 Y283.717 E0.4055
G1 X187.016 Y283.717 E0.4223
G1 X189.178 Y285.879 E0.5110
G1 X189.755 Y285.879 E0.5278
G1 X187.594 Y283.717 E0.6166
G1 X188.171 Y283.717 E0.6334
G1 X190.333 Y285.879 E0.7222
G1 X190.911 Y285.879 E0.7389
G1 X188.749 Y283.717 E0.8277
G1 X189.327 Y283.717 E0.8445
G1 X191.488 Y285.879 E0.9333
G1 X192.066 Y285.879 E0.9501
G1 X189.904 Y283.717 E1.0389
G1 X190.482 Y283.717 E1.0556
G1 X192.644 Y285.879 E1.1444
G1 X193.221 Y285.879 E1.1612
G1 X191.060 Y283.717 E1.2500
G1 X191.637 Y283.717 E1.2668
G1 X193.799 Y285.879 E1.3555
G1 X194.377 Y285.879 E1.3723
G1 X192.215 Y283.717 E1.4611
G1 X192.793 Y283.717 E1.4779
G1 X194.955 Y285.879 E1.5667
G1 X195.532 Y285.879 E1.5834
G1 X193.371 Y283.717 E1.6722
G1 X193.948 Y283.717 E1.6890
G1 X196.110 Y285.879 E1.7778
G1 X196.688 Y285.879 E1.7946
G1 X194.526 Y283.717 E1.8834
G1 X195.104 Y283.717 E1.9001
G1 X197.265 Y285.879 E1.9889
G1 X197.843 Y285.879 E2.0057
G1 X195.681 Y283.717 E2.0945
G1 X196.259 Y283.717 E2.1113
G1 X198.421 Y285.879 E2.2000
G1 X198.999 Y285.879 E2.2168
G1 X196.837 Y283.717 E2.3056
G1 X197.415 Y283.717 E2.3224
G1 X199.576 Y285.879 E2.4112
G1 X200.154 Y285.879 E2.4280
G1 X197.992 Y283.717 E2.5167
G1 X198.495 Y283.717 E2.5313
G1 X198.495 Y283.643 E2.5335
G1 X200.657 Y285.804 E2.6223
G1 X200.657 Y285.227 E2.6391
G1 X198.495 Y283.065 E2.7279
G1 X198.495 Y282.487 E2.7446
G1 X200.657 Y284.649 E2.8334
G1 X200.657 Y284.071 E2.8502
G1 X198.495 Y281.909 E2.9390
G1 X198.495 Y281.332 E2.9558
G1 X200.657 Y283.493 E3.0446
G1 X200.657 Y282.916 E3.0613
G1 X198.495 Y280.754 E3.1501
G1 X198.495 Y280.176 E3.1669
G1 X200.657 Y282.338 E3.2557
G1 X200.657 Y281.760 E3.2725
G1 X198.495 Y279.599 E3.3612
G1 X198.495 Y279.021 E3.3780
G1 X200.657 Y281.183 E3.4668
G1 X200.657 Y280.605 E3.4836
G1 X198.495 Y278.443 E3.5724
G1 X198.495 Y277.865 E3.5891
G1 X200.657 Y280.027 E3.6779
G1 X200.657 Y279.450 E3.6947
G1 X198.495 Y277.288 E3.7835
G1 X198.495 Y276.710 E3.8003
G1 X200.657 Y278.872 E3.8891
G1 X200.657 Y278.294 E3.9058
G1 X198.495 Y276.132 E3.9946
G1 X198.495 Y275.555 E4.0114
G1 X200.657 Y277.716 E4.1002
G1 X200.657 Y277.139 E4.1170
G1 X198.495 Y274.977 E4.2058
G1 X198.495 Y274.399 E4.2225
G1 X200.657 Y276.561 E4.3113
G1 X200.657 Y275.983 E4.3281
G1 X198.495 Y273.822 E4.4169
G1 X198.495 Y273.244 E4.4337
G1 X200.657 Y275.406 E4.5224
G1 X200.657 Y274.828 E4.5392
G1 X198.495 Y272.666 E4.6280
G1 X198.495 Y272.088 E4.6448
G1 X200.657 Y274.250 E4.7336
G1 X200.657 Y273.672 E4.7503
G1 X198.495 Y271.511 E4.8391
G1 X198.495 Y270.933 E4.8559
G1 X200.657 Y273.095 E4.9447
G1 X200.657 Y272.517 E4.9615
G1 X198.707 Y270.567 E5.0415
G1 X198.495 Y270.355 F1260
G1 X200.479 Y267.717 F6000
G92 E0
G1 X200.657 Y267.895 E0.0073 F1260
G1 X200.657 Y268.473 E0.0241
G1 X199.901 Y267.717 E0.0551
G1 X199.323 Y267.717 E0.0719
G1 X200.657 Y269.051 E0.1267
G1 X200.657 Y269.629 E0.1435
G1 X198.746 Y267.717 E0.2219
G1 X198.168 Y267.717 E0.2387
G1 X200.657 Y270.206 E0.3409
G1 X200.657 Y270.784 E0.3577
G1 X197.590 Y267.717 E0.4837
G1 X197.013 Y267.717 E0.5004
G1 X200.657 Y271.362 E0.6501
G1 X200.657 Y271.939 E0.6669
G1 X196.435 Y267.717 E0.8403
G1 X195.857 Y267.717 E0.8571
G1 X198.019 Y269.879 E0.9459
G1 X197.441 Y269.879 E0.9626
G1 X195.279 Y267.717 E1.0514
G1 X194.702 Y267.717 E1.0682
G1 X196.864 Y269.879 E1.1570
G1 X196.286 Y269.879 E1.1738
G1 X194.124 Y267.717 E1.2626
G1 X193.546 Y267.717 E1.2793
G1 X195.708 Y269.879 E1.3681
G1 X195.130 Y269.879 E1.3849
G1 X192.969 Y267.717 E1.4737
G1 X192.391 Y267.717 E1.4905
G1 X194.553 Y269.879 E1.5792
G1 X193.975 Y269.879 E1.5960
G1 X191.813 Y267.717 E1.6848
G1 X191.236 Y267.717 E1.7016
G1 X193.397 Y269.879 E1.7904
G1 X192.820 Y269.879 E1.8072
G1 X190.658 Y267.717 E1.8959
G1 X190.080 Y267.717 E1.9127
G1 X192.242 Y269.879 E2.0015
G1 X191.664 Y269.879 E2.0183
G1 X189.502 Y267.717 E2.1071
G1 X188.925 Y267.717 E2.1238
G1 X191.086 Y269.879 E2.2126
G1 X190.509 Y269.879 E2.2294
G1 X188.347 Y267.717 E2.3182
G1 X187.769 Y267.717 E2.3350
G1 X189.931 Y269.879 E2.4238
G1 X189.353 Y269.879 E2.4405
G1 X187.192 Y267.717 E2.5293
G1 X186.614 Y267.717 E2.5461
G1 X188.776 Y269.879 E2.6349
G1 X188.198 Y269.879 E2.6517
G1 X186.036 Y267.717 E2.7404
G1 X185.458 Y267.717 E2.7572
G1 X187.620 Y269.879 E2.8460
G1 X187.043 Y269.879 E2.8628
G1 X184.881 Y267.717 E2.9516
G1 X184.303 Y267.717 E2.9683
G1 X186.465 Y269.879 E3.0571
G1 X185.887 Y269.879 E3.0739
G1 X183.725 Y267.717 E3.1627
G1 X183.148 Y267.717 E3.1795
G1 X185.309 Y269.879 E3.2683
G1 X184.732 Y269.879 E3.2850
G1 X182.570 Y267.717 E3.3738
G1 X182.495 Y267.717 E3.3760
G1 X182.495 Y268.220 E3.3906
G1 X184.657 Y270.382 E3.4794
G1 X184.657 Y270.960 E3.4962
G1 X182.495 Y268.798 E3.5849
G1 X182.495 Y269.376 E3.6017
G1 X184.657 Y271.537 E3.6905
G1 X184.657 Y272.115 E3.7073
G1 X182.495 Y269.953 E3.7961
G1 X182.495 Y270.531 E3.8129
G1 X184.657 Y272.693 E3.9016
G1 X184.657 Y273.271 E3.9184
G1 X182.495 Y271.109 E4.0072
G1 X182.495 Y271.686 E4.0240
G1 X184.657 Y273.848 E4.1128
G1 X184.657 Y274.426 E4.1295
G1 X182.495 Y272.264 E4.2183
G1 X182.495 Y272.842 E4.2351
G1 X184.657 Y275.004 E4.3239
G1 X184.657 Y275.581 E4.3407
G1 X182.495 Y273.420 E4.4295
G1 X182.495 Y273.997 E4.4462
G1 X184.657 Y276.159 E4.5350
G1 X184.657 Y276.737 E4.5518
G1 X182.495 Y274.575 E4.6406
G1 X182.495 Y275.153 E4.6574
G1 X184.657 Y277.314 E4.7461
G1 X184.657 Y277.892 E4.7629
G1 X182.495 Y275.730 E4.8517
G1 X182.495 Y276.308 E4.8685
G1 X184.657 Y278.470 E4.9573
G1 X184.657 Y279.048 E4.9740
G1 X182.495 Y276.886 E5.0628
G1 X182.495 Y277.464 E5.0796
G1 X184.657 Y279.625 E5.1684
G1 X184.657 Y280.203 E5.1852
G1 X182.495 Y278.041 E5.2740
G1 X182.495 Y278.619 E5.2907
G1 X184.657 Y280.781 E5.3795
G1 X184.657 Y281.358 E5.3963
G1 X182.495 Y279.197 E5.4851
G1 X182.495 Y279.774 E5.5019
G1 X184.657 Y281.936 E5.5906
G1 X184.657 Y282.514 E5.6074
G1 X182.495 Y280.352 E5.6962
G1 X182.495 Y280.930 E5.7130
G1 X184.657 Y283.092 E5.8018
G1 X184.657 Y283.669 E5.8186
G1 X182.495 Y281.507 E5.9073
G1 X182.495 Y282.085 E5.9241
G1 X186.289 Y285.879 E6.0799
G1 X185.711 Y285.879 E6.0967
G1 X182.495 Y282.663 E6.2288
G1 X182.495 Y283.241 E6.2456
G1 X185.134 Y285.879 E6.3539
G1 X184.556 Y285.879 E6.3707
G1 X182.495 Y283.818 E6.4554
G1 X182.495 Y284.396 E6.4721
G1 X183.978 Y285.879 E6.5331
G1 X183.400 Y285.879 E6.5498
G1 X182.495 Y284.974 E6.5870
G1 X182.495 Y285.551 E6.6038
G1 X182.611 Y285.667 E6.6085
G1 X182.823 Y285.879 F1260
G92 E0
G1 E-1.3000 F1800
; inner perimeter
G1 X181.776 Y284.141 F6000
G1 X181.776 Y266.998 F6000
G1 X17.425 Y11.220 F6000
G1 E0.0000 F1800
G92 E0
G1 X36.200 Y11.220 E0.5452 F1470
G1 X36.200 Y29.995 E1.0905
G1 X17.425 Y29.995 E1.6357
G1 X17.425 Y11.520 E2.1723
G1 X17.425 Y11.220 F1470
; outer perimeter
G1 X17.016 Y10.812 F6000
G92 E0
G1 X36.608 Y10.812 E0.5690 F840
G1 X36.608 Y30.403 E1.1379
G1 X17.016 Y30.403 E1.7069
G1 X17.016 Y11.112 E2.2672
G1 X17.016 Y10.812 F840
G1 X20.050 Y10.812 F4200
; inner perimeter
G1 X20.199 Y13.995 F6000
G92 E0
G1 X20.200 Y27.220 E0.3841 F1470
G1 X33.425 Y27.220 E0.7682
G1 X33.425 Y13.995 E1.1523
G1 X20.499 Y13.995 E1.5277
G1 X20.200 Y13.995 F1470
; outer perimeter
G1 X20.608 Y14.403 F6000
G92 E0
G1 X20.608 Y26.812 E0.3604 F840
G1 X33.017 Y26.812 E0.7207
G1 X33.017 Y14.403 E1.0811
G1 X20.908 Y14.403 E1.4327
G1 X20.608 Y14.403 F840
G1 X20.608 Y17.436 F4200
; solid layer
G1 X20.612 Y17.558 F6000
G1 X20.612 Y26.807 F6000
G1 X20.923 Y26.807 F6000
