; G-Code generated by Simplify3D(R) Version 4.0.1
; Nov 2, 2018 at 9:45:51 PM
; Settings Summary
;   processName,Process1
;   applyToModels,10-100_mm_Bridge_Tes
;   profileName,P3Steel 300x200 Autolevel DUET3D
;   profileVersion,2018-11-02 19:42:49
;   baseProfile,Default
;   printMaterial,PLA
;   printQuality,Medium
;   printExtruders,
;   extruderName,Primary Extruder
;   extruderToolheadNumber,0
;   extruderDiameter,0.4
;   extruderAutoWidth,0
;   extruderWidth,0.43
;   extrusionMultiplier,0.95
;   extruderUseRetract,1
;   extruderRetractionDistance,1.3
;   extruderExtraRestartDistance,0
;   extruderRetractionZLift,0
;   extruderRetractionSpeed,1800
;   extruderUseCoasting,1
;   extruderCoastingDistance,0.3
;   extruderUseWipe,1
;   extruderWipeDistance,1.2
;   primaryExtruder,0
;   layerHeight,0.2
;   topSolidLayers,3
;   bottomSolidLayers,3
;   perimeterOutlines,2
;   printPerimetersInsideOut,1
;   startPointOption,3
;   startPointOriginX,0
;   startPointOriginY,0
;   sequentialIslands,0
;   spiralVaseMode,0
;   firstLayerHeightPercentage,90
;   firstLayerWidthPercentage,95
;   firstLayerUnderspeed,0.5
;   useRaft,0
;   raftExtruder,0
;   raftTopLayers,1
;   raftBaseLayers,1
;   raftOffset,3
;   raftSeparationDistance,0.14
;   raftTopInfill,100
;   aboveRaftSpeedMultiplier,0.3
;   useSkirt,1
;   skirtExtruder,0
;   skirtLayers,1
;   skirtOutlines,1
;   skirtOffset,3
;   usePrimePillar,0
;   primePillarExtruder,999
;   primePillarWidth,12
;   primePillarLocation,7
;   primePillarSpeedMultiplier,1
;   useOozeShield,0
;   oozeShieldExtruder,999
;   oozeShieldOffset,2
;   oozeShieldOutlines,1
;   oozeShieldSidewallShape,1
;   oozeShieldSidewallAngle,30
;   oozeShieldSpeedMultiplier,1
;   infillExtruder,0
;   internalInfillPattern,Rectilinear
;   externalInfillPattern,Rectilinear
;   infillPercentage,20
;   outlineOverlapPercentage,25
;   infillExtrusionWidthPercentage,100
;   minInfillLength,2
;   infillLayerInterval,1
;   internalInfillAngles,45,-45
;   overlapInternalInfillAngles,0
;   externalInfillAngles,45,-45
;   generateSupport,0
;   supportExtruder,0
;   supportInfillPercentage,45
;   supportExtraInflation,0
;   supportBaseLayers,0
;   denseSupportExtruder,0
;   denseSupportLayers,0
;   denseSupportInfillPercentage,70
;   supportLayerInterval,1
;   supportHorizontalPartOffset,0.3
;   supportUpperSeparationLayers,1
;   supportLowerSeparationLayers,1
;   supportType,0
;   supportGridSpacing,4
;   maxOverhangAngle,89
;   supportAngles,0
;   temperatureName,Primary Extruder,Heated Bed
;   temperatureNumber,0,1
;   temperatureSetpointCount,1,1
;   temperatureSetpointLayers,1,1
;   temperatureSetpointTemperatures,195,50
;   temperatureStabilizeAtStartup,1,1
;   temperatureHeatedBed,0,1
;   temperatureRelayBetweenLayers,0,0
;   temperatureRelayBetweenLoops,0,0
;   fanLayers,1,2
;   fanSpeeds,0,100
;   blipFanToFullPower,0
;   adjustSpeedForCooling,1
;   minSpeedLayerTime,15
;   minCoolingSpeedSlowdown,20
;   increaseFanForCooling,0
;   minFanLayerTime,45
;   maxCoolingFanSpeed,100
;   increaseFanForBridging,0
;   bridgingFanSpeed,100
;   use5D,1
;   relativeEdistances,0
;   allowEaxisZeroing,1
;   independentExtruderAxes,0
;   includeM10123,0
;   stickySupport,1
;   applyToolheadOffsets,0
;   gcodeXoffset,0
;   gcodeYoffset,0
;   gcodeZoffset,0
;   overrideMachineDefinition,1
;   machineTypeOverride,0
;   strokeXoverride,212
;   strokeYoverride,305
;   strokeZoverride,220
;   originOffsetXoverride,0
;   originOffsetYoverride,0
;   originOffsetZoverride,0
;   homeXdirOverride,-1
;   homeYdirOverride,-1
;   homeZdirOverride,-1
;   flipXoverride,1
;   flipYoverride,-1
;   flipZoverride,1
;   toolheadOffsets,0,0|0,0|0,0|0,0|0,0|0,0
;   overrideFirmwareConfiguration,0
;   firmwareTypeOverride,RepRap (Marlin/Repetier/Sprinter)
;   GPXconfigOverride,r2
;   baudRateOverride,115200
;   overridePrinterModels,0
;   printerModelsOverride
;   startingGcode,G28 ; home all axes,G1 Z30 F3000,M106 S1 [Enciende ventilador de capa],M140 S[bed1_temperature],M104 S[extruder0_temperature],M109 S[extruder0_temperature],G29 S1,G92 E0,M106 S0 (Apaga Ventilador de capa ],G1 X0 Y0 Z0.2 F3000 ; go outside printing area,G1 X60.0 E9.0  F1000.0 ; intro line,G1 X100.0 E12.5  F1000.0 ; intro line,G92 E0
;   layerChangeGcode,
;   retractionGcode,
;   toolChangeGcode,
;   endingGcode,G28 Y0 X0 ,M104 S0 ; turn off extruder,M140 S0 ; turn off bed,M84 ; disable motors,M107 ; turn off fan,
;   exportFileFormat,gcode
;   celebration,0
;   celebrationSong,Star Wars
;   postProcessing,
;   defaultSpeed,4200
;   outlineUnderspeed,0.4
;   solidInfillUnderspeed,0.6
;   supportUnderspeed,0.7
;   rapidXYspeed,6000
;   rapidZspeed,900
;   minBridgingArea,50
;   bridgingExtraInflation,1
;   bridgingExtrusionMultiplier,0.8
;   bridgingSpeedMultiplier,1.2
;   useFixedBridgingAngle,0
;   fixedBridgingAngle,0
;   applyBridgingToPerimeters,0
;   filamentDiameters,1.75|1.75|1.75|1.75|1.75|1.75
;   filamentPricesPerKg,16|16|16|16|16|16
;   filamentDensities,1.25|1.25|1.25|1.25|1.25|1.25
;   useMinPrintHeight,0
;   minPrintHeight,0
;   useMaxPrintHeight,0
;   maxPrintHeight,50
;   useDiaphragm,0
;   diaphragmLayerInterval,20
;   robustSlicing,1
;   mergeAllIntoSolid,0
;   onlyRetractWhenCrossingOutline,1
;   retractBetweenLayers,1
;   useRetractionMinTravel,1
;   retractionMinTravel,3
;   retractWhileWiping,1
;   onlyWipeOutlines,1
;   avoidCrossingOutline,1
;   maxMovementDetourFactor,5
;   toolChangeRetractionDistance,12
;   toolChangeExtraRestartDistance,-0.5
;   toolChangeRetractionSpeed,600
;   externalThinWallType,0
;   internalThinWallType,1
;   thinWallAllowedOverlapPercentage,10
;   singleExtrusionMinLength,1
;   singleExtrusionMinPrintingWidthPercentage,50
;   singleExtrusionMaxPrintingWidthPercentage,200
;   singleExtrusionEndpointExtension,0.2
;   horizontalSizeCompensation,0
G90
M82
G28 ; home all axes
G1 Z30 F3000
M106 S1 [Enciende ventilador de capa]
M140 S50
M104 S195
M109 S195
G29 S1
G92 E0
M106 S0 (Apaga Ventilador de capa ]
G1 X0 Y0 Z0.2 F3000 ; go outside printing area
G1 X60.0 E9.0  F1000.0 ; intro line
G1 X100.0 E12.5  F1000.0 ; intro line
G92 E0
G92 E0
G1 E-1.3000 F1800
G1 Z0.180 F900
; process Process1
; layer 1, Z = 0.180
M106 S0
T0
; tool H0.200 W0.408
; skirt
G1 X70.303 Y93.393 F6000
G1 E0.0000 F540
G92 E0
G1 X70.382 Y93.360 E0.0028 F2100
G1 X140.953 Y93.360 E2.2800
G1 X141.032 Y93.393 E2.2827
G1 X142.850 Y95.211 E2.3657
G1 X142.883 Y95.290 E2.3685
G1 X142.883 Y103.860 E2.6450
G1 X142.850 Y103.939 E2.6478
G1 X141.032 Y105.757 E2.7307
G1 X140.953 Y105.790 E2.7335
G1 X84.313 Y105.790 E4.5612
G1 X86.396 Y109.256 E4.6917
G1 X87.350 Y110.211 E4.7352
G1 X87.383 Y110.290 E4.7380
G1 X87.383 Y110.899 E4.7577
G1 X92.417 Y119.278 E5.0731
G1 X93.350 Y120.211 E5.1157
G1 X93.383 Y120.290 E5.1184
G1 X93.383 Y120.885 E5.1376
G1 X98.439 Y129.299 E5.4544
G1 X99.350 Y130.211 E5.4960
G1 X99.383 Y130.290 E5.4987
G1 X99.383 Y130.870 E5.5175
G1 X104.460 Y139.321 E5.8356
G1 X105.350 Y140.211 E5.8762
G1 X105.383 Y140.290 E5.8790
G1 X105.383 Y140.856 E5.8972
G1 X110.482 Y149.342 E6.2167
G1 X111.350 Y150.211 E6.2563
G1 X111.383 Y150.290 E6.2591
G1 X111.383 Y150.842 E6.2769
G1 X116.503 Y159.364 E6.5977
G1 X117.350 Y160.211 E6.6364
G1 X117.383 Y160.290 E6.6391
G1 X117.383 Y160.827 E6.6565
G1 X122.525 Y169.386 E6.9787
G1 X123.350 Y170.211 E7.0163
G1 X123.383 Y170.290 E7.0191
G1 X123.383 Y170.813 E7.0360
G1 X128.547 Y179.407 E7.3595
G1 X129.350 Y180.211 E7.3962
G1 X129.383 Y180.290 E7.3989
G1 X129.383 Y180.797 E7.4153
G1 X134.568 Y189.429 E7.7402
G1 X135.350 Y190.211 E7.7759
G1 X135.383 Y190.290 E7.7787
G1 X135.383 Y190.783 E7.7946
G1 X140.590 Y199.450 E8.1209
G1 X141.350 Y200.211 E8.1555
G1 X141.383 Y200.290 E8.1583
G1 X141.383 Y200.769 E8.1738
G1 X143.793 Y204.781 E8.3248
G1 X143.806 Y204.866 E8.3276
G1 X143.184 Y207.360 E8.4105
G1 X143.133 Y207.429 E8.4133
G1 X135.786 Y211.843 E8.6898
G1 X135.701 Y211.855 E8.6926
G1 X133.207 Y211.233 E8.7756
G1 X133.138 Y211.183 E8.7783
G1 X68.207 Y103.119 E12.8464
G1 X68.194 Y103.035 E12.8492
G1 X68.453 Y101.998 E12.8837
G1 X68.453 Y95.290 E13.1001
G1 X68.486 Y95.211 E13.1029
G1 X70.091 Y93.605 E13.1762
G1 X70.303 Y93.393 F2100
G92 E0
G1 E-1.3000 F1800
; inner perimeter
G1 X71.868 Y96.775 F6000
G1 X72.066 Y96.775 F6000
G1 X72.281 Y97.188 F6000
G1 E0.0000 F1800
G92 E0
G1 X139.055 Y97.188 E2.1547 F1470
G1 X139.055 Y101.962 E2.3088
G1 X78.273 Y101.962 E4.2701
G1 X77.921 Y102.584 E4.2932
G1 X83.529 Y111.917 E4.6445
G1 X89.700 Y122.188 E5.0312
G1 X95.709 Y132.188 E5.4076
G1 X101.717 Y142.188 E5.7841
G1 X107.726 Y152.188 E6.1605
G1 X113.735 Y162.188 E6.5370
G1 X119.555 Y171.875 E6.9017
G1 X125.752 Y182.188 E7.2899
G1 X131.760 Y192.188 E7.6663
G1 X137.769 Y202.188 E8.0428
G1 X139.534 Y205.125 E8.1534
G1 X135.442 Y207.584 E8.3074
G1 X72.281 Y102.467 E12.2646
G1 X72.281 Y97.485 E12.4254
G1 X72.281 Y97.188 F1470
; outer perimeter
G1 X71.872 Y96.779 F6000
G92 E0
G1 X139.464 Y96.779 E2.1811 F840
G1 X139.464 Y102.371 E2.3615
G1 X78.511 Y102.371 E4.3284
G1 X78.394 Y102.578 E4.3360
G1 X83.923 Y111.779 E4.6824
G1 X83.964 Y111.779 E4.6837
G1 X83.964 Y111.847 E4.6859
G1 X89.931 Y121.779 E5.0598
G1 X89.964 Y121.779 E5.0609
G1 X89.964 Y121.833 E5.0626
G1 X95.940 Y131.779 E5.4370
G1 X95.964 Y131.779 E5.4378
G1 X95.964 Y131.819 E5.4391
G1 X101.949 Y141.779 E5.8140
G1 X101.964 Y141.779 E5.8145
G1 X101.964 Y141.804 E5.8153
G1 X107.957 Y151.779 E6.1909
G1 X107.964 Y151.779 E6.1911
G1 X107.964 Y151.790 E6.1914
G1 X113.966 Y161.779 E6.5675
G1 X119.964 Y171.761 E6.9432
G1 X125.983 Y181.779 E7.3204
G1 X131.992 Y191.779 E7.6968
G1 X138.000 Y201.779 E8.0733
G1 X140.095 Y205.265 E8.2045
G1 X135.302 Y208.145 E8.3849
G1 X71.872 Y102.580 E12.3589
G1 X71.872 Y97.077 E12.5365
G1 X71.872 Y96.779 F840
G1 X74.905 Y96.779 F4200
; solid layer
G1 X138.228 Y97.494 F6000
G92 E0
G1 X138.749 Y98.015 E0.0238 F1260
G1 X138.749 Y98.593 E0.0424
G1 X137.650 Y97.494 E0.0926
G1 X137.072 Y97.494 E0.1112
G1 X138.749 Y99.171 E0.1877
G1 X138.749 Y99.748 E0.2063
G1 X136.495 Y97.494 E0.3092
G1 X135.917 Y97.494 E0.3279
G1 X138.749 Y100.326 E0.4571
G1 X138.749 Y100.904 E0.4757
G1 X135.339 Y97.494 E0.6313
G1 X134.762 Y97.494 E0.6500
G1 X138.749 Y101.481 E0.8319
G1 X138.749 Y101.656 E0.8375
G1 X138.346 Y101.656 E0.8506
G1 X134.184 Y97.494 E1.0405
G1 X133.606 Y97.494 E1.0591
G1 X137.768 Y101.656 E1.2490
G1 X137.190 Y101.656 E1.2677
G1 X133.028 Y97.494 E1.4576
G1 X132.451 Y97.494 E1.4762
G1 X136.612 Y101.656 E1.6662
G1 X136.035 Y101.656 E1.6848
G1 X131.873 Y97.494 E1.8747
G1 X131.295 Y97.494 E1.8934
G1 X135.457 Y101.656 E2.0833
G1 X134.879 Y101.656 E2.1019
G1 X130.718 Y97.494 E2.2918
G1 X130.140 Y97.494 E2.3105
G1 X134.302 Y101.656 E2.5004
G1 X133.724 Y101.656 E2.5191
G1 X129.562 Y97.494 E2.7090
G1 X128.984 Y97.494 E2.7276
G1 X133.146 Y101.656 E2.9175
G1 X132.569 Y101.656 E2.9362
G1 X128.407 Y97.494 E3.1261
G1 X127.829 Y97.494 E3.1447
G1 X131.991 Y101.656 E3.3347
G1 X131.413 Y101.656 E3.3533
G1 X127.251 Y97.494 E3.5432
G1 X126.674 Y97.494 E3.5619
G1 X130.835 Y101.656 E3.7518
G1 X130.258 Y101.656 E3.7704
G1 X126.096 Y97.494 E3.9603
G1 X125.518 Y97.494 E3.9790
G1 X129.680 Y101.656 E4.1689
G1 X129.102 Y101.656 E4.1875
G1 X124.941 Y97.494 E4.3775
G1 X124.363 Y97.494 E4.3961
G1 X128.525 Y101.656 E4.5860
G1 X127.947 Y101.656 E4.6047
G1 X123.785 Y97.494 E4.7946
G1 X123.207 Y97.494 E4.8132
G1 X127.369 Y101.656 E5.0031
G1 X126.791 Y101.656 E5.0218
G1 X122.630 Y97.494 E5.2117
G1 X122.052 Y97.494 E5.2304
G1 X126.214 Y101.656 E5.4203
G1 X125.636 Y101.656 E5.4389
G1 X121.474 Y97.494 E5.6288
G1 X120.897 Y97.494 E5.6475
G1 X125.058 Y101.656 E5.8374
G1 X124.481 Y101.656 E5.8560
G1 X120.319 Y97.494 E6.0460
G1 X119.741 Y97.494 E6.0646
G1 X123.903 Y101.656 E6.2545
G1 X123.325 Y101.656 E6.2732
G1 X119.163 Y97.494 E6.4631
G1 X118.586 Y97.494 E6.4817
G1 X122.748 Y101.656 E6.6716
G1 X122.170 Y101.656 E6.6903
G1 X118.008 Y97.494 E6.8802
G1 X117.430 Y97.494 E6.8988
G1 X121.592 Y101.656 E7.0888
G1 X121.014 Y101.656 E7.1074
G1 X116.853 Y97.494 E7.2973
G1 X116.275 Y97.494 E7.3160
G1 X120.437 Y101.656 E7.5059
G1 X119.859 Y101.656 E7.5245
G1 X115.697 Y97.494 E7.7145
G1 X115.120 Y97.494 E7.7331
G1 X119.281 Y101.656 E7.9230
G1 X118.704 Y101.656 E7.9417
G1 X114.542 Y97.494 E8.1316
G1 X113.964 Y97.494 E8.1502
G1 X118.126 Y101.656 E8.3401
G1 X117.548 Y101.656 E8.3588
G1 X113.386 Y97.494 E8.5487
G1 X112.809 Y97.494 E8.5673
G1 X116.970 Y101.656 E8.7573
G1 X116.393 Y101.656 E8.7759
G1 X112.231 Y97.494 E8.9658
G1 X111.653 Y97.494 E8.9845
G1 X115.815 Y101.656 E9.1744
G1 X115.237 Y101.656 E9.1930
G1 X111.076 Y97.494 E9.3829
G1 X110.498 Y97.494 E9.4016
G1 X114.660 Y101.656 E9.5915
G1 X114.082 Y101.656 E9.6101
G1 X109.920 Y97.494 E9.8001
G1 X109.342 Y97.494 E9.8187
G1 X113.504 Y101.656 E10.0086
G1 X112.927 Y101.656 E10.0273
G1 X108.765 Y97.494 E10.2172
G1 X108.187 Y97.494 E10.2358
G1 X112.349 Y101.656 E10.4258
G1 X111.771 Y101.656 E10.4444
G1 X107.609 Y97.494 E10.6343
G1 X107.032 Y97.494 E10.6530
G1 X111.193 Y101.656 E10.8429
G1 X110.616 Y101.656 E10.8615
G1 X106.454 Y97.494 E11.0514
G1 X105.876 Y97.494 E11.0701
G1 X110.038 Y101.656 E11.2600
G1 X109.460 Y101.656 E11.2786
G1 X105.299 Y97.494 E11.4686
G1 X104.721 Y97.494 E11.4872
G1 X108.883 Y101.656 E11.6771
G1 X108.305 Y101.656 E11.6958
G1 X104.143 Y97.494 E11.8857
G1 X103.565 Y97.494 E11.9043
G1 X107.727 Y101.656 E12.0942
G1 X107.149 Y101.656 E12.1129
G1 X102.988 Y97.494 E12.3028
G1 X102.410 Y97.494 E12.3215
G1 X106.572 Y101.656 E12.5114
G1 X105.994 Y101.656 E12.5300
G1 X101.832 Y97.494 E12.7199
G1 X101.255 Y97.494 E12.7386
G1 X105.416 Y101.656 E12.9285
G1 X104.839 Y101.656 E12.9471
G1 X100.677 Y97.494 E13.1371
G1 X100.099 Y97.494 E13.1557
G1 X104.261 Y101.656 E13.3456
G1 X103.683 Y101.656 E13.3643
G1 X99.521 Y97.494 E13.5542
G1 X98.944 Y97.494 E13.5728
G1 X103.105 Y101.656 E13.7627
G1 X102.528 Y101.656 E13.7814
G1 X98.366 Y97.494 E13.9713
G1 X97.788 Y97.494 E13.9899
G1 X101.950 Y101.656 E14.1799
G1 X101.372 Y101.656 E14.1985
G1 X97.211 Y97.494 E14.3884
G1 X96.633 Y97.494 E14.4071
G1 X100.795 Y101.656 E14.5970
G1 X100.217 Y101.656 E14.6156
G1 X96.055 Y97.494 E14.8056
G1 X95.478 Y97.494 E14.8242
G1 X99.639 Y101.656 E15.0141
G1 X99.062 Y101.656 E15.0328
G1 X94.900 Y97.494 E15.2227
G1 X94.322 Y97.494 E15.2413
G1 X98.484 Y101.656 E15.4312
G1 X97.906 Y101.656 E15.4499
G1 X93.744 Y97.494 E15.6398
G1 X93.167 Y97.494 E15.6584
G1 X97.328 Y101.656 E15.8484
G1 X96.751 Y101.656 E15.8670
G1 X92.589 Y97.494 E16.0569
G1 X92.011 Y97.494 E16.0756
G1 X96.173 Y101.656 E16.2655
G1 X95.595 Y101.656 E16.2841
G1 X91.434 Y97.494 E16.4740
G1 X90.856 Y97.494 E16.4927
G1 X95.018 Y101.656 E16.6826
G1 X94.440 Y101.656 E16.7012
G1 X90.278 Y97.494 E16.8912
G1 X89.700 Y97.494 E16.9098
G1 X93.862 Y101.656 E17.0997
G1 X93.284 Y101.656 E17.1184
G1 X89.123 Y97.494 E17.3083
G1 X88.545 Y97.494 E17.3269
G1 X92.707 Y101.656 E17.5169
G1 X92.129 Y101.656 E17.5355
G1 X87.967 Y97.494 E17.7254
G1 X87.390 Y97.494 E17.7441
G1 X91.551 Y101.656 E17.9340
G1 X90.974 Y101.656 E17.9526
G1 X86.812 Y97.494 E18.1425
G1 X86.234 Y97.494 E18.1612
G1 X90.396 Y101.656 E18.3511
G1 X89.818 Y101.656 E18.3697
G1 X85.657 Y97.494 E18.5597
G1 X85.079 Y97.494 E18.5783
G1 X89.241 Y101.656 E18.7682
G1 X88.663 Y101.656 E18.7869
G1 X84.501 Y97.494 E18.9768
G1 X83.923 Y97.494 E18.9954
G1 X88.085 Y101.656 E19.1853
G1 X87.507 Y101.656 E19.2040
G1 X83.346 Y97.494 E19.3939
G1 X82.768 Y97.494 E19.4126
G1 X86.930 Y101.656 E19.6025
G1 X86.352 Y101.656 E19.6211
G1 X82.190 Y97.494 E19.8110
G1 X81.613 Y97.494 E19.8297
G1 X85.774 Y101.656 E20.0196
G1 X85.197 Y101.656 E20.0382
G1 X81.035 Y97.494 E20.2282
G1 X80.457 Y97.494 E20.2468
G1 X84.619 Y101.656 E20.4367
G1 X84.041 Y101.656 E20.4554
G1 X79.879 Y97.494 E20.6453
G1 X79.302 Y97.494 E20.6639
G1 X83.463 Y101.656 E20.8538
G1 X82.886 Y101.656 E20.8725
G1 X78.724 Y97.494 E21.0624
G1 X78.146 Y97.494 E21.0810
G1 X82.308 Y101.656 E21.2710
G1 X81.730 Y101.656 E21.2896
G1 X77.569 Y97.494 E21.4795
G1 X76.991 Y97.494 E21.4982
G1 X81.153 Y101.656 E21.6881
G1 X80.575 Y101.656 E21.7067
G1 X76.413 Y97.494 E21.8967
