; G-Code generated by Simplify3D(R) Version 4.0.1
; Nov 2, 2018 at 1:23:02 PM
; Settings Summary
;   processName,Process1
;   applyToModels,cUADRADO
;   profileName,P3Steel 300x200 Autolevel DUET3D
;   profileVersion,2018-10-30 23:58:48
;   baseProfile,Default
;   printMaterial,PLA
;   printQuality,Medium
;   printExtruders,
;   extruderName,Primary Extruder
;   extruderToolheadNumber,0
;   extruderDiameter,0.4
;   extruderAutoWidth,0
;   extruderWidth,0.43
;   extrusionMultiplier,0.95
;   extruderUseRetract,1
;   extruderRetractionDistance,1.3
;   extruderExtraRestartDistance,0
;   extruderRetractionZLift,0
;   extruderRetractionSpeed,1800
;   extruderUseCoasting,1
;   extruderCoastingDistance,0.3
;   extruderUseWipe,1
;   extruderWipeDistance,1.2
;   primaryExtruder,0
;   layerHeight,0.2
;   topSolidLayers,3
;   bottomSolidLayers,3
;   perimeterOutlines,2
;   printPerimetersInsideOut,1
;   startPointOption,3
;   startPointOriginX,0
;   startPointOriginY,0
;   sequentialIslands,0
;   spiralVaseMode,0
;   firstLayerHeightPercentage,90
;   firstLayerWidthPercentage,95
;   firstLayerUnderspeed,0.5
;   useRaft,0
;   raftExtruder,0
;   raftTopLayers,1
;   raftBaseLayers,1
;   raftOffset,3
;   raftSeparationDistance,0.14
;   raftTopInfill,100
;   aboveRaftSpeedMultiplier,0.3
;   useSkirt,1
;   skirtExtruder,0
;   skirtLayers,1
;   skirtOutlines,1
;   skirtOffset,3
;   usePrimePillar,0
;   primePillarExtruder,999
;   primePillarWidth,12
;   primePillarLocation,7
;   primePillarSpeedMultiplier,1
;   useOozeShield,0
;   oozeShieldExtruder,999
;   oozeShieldOffset,2
;   oozeShieldOutlines,1
;   oozeShieldSidewallShape,1
;   oozeShieldSidewallAngle,30
;   oozeShieldSpeedMultiplier,1
;   infillExtruder,0
;   internalInfillPattern,Rectilinear
;   externalInfillPattern,Rectilinear
;   infillPercentage,20
;   outlineOverlapPercentage,25
;   infillExtrusionWidthPercentage,100
;   minInfillLength,2
;   infillLayerInterval,1
;   internalInfillAngles,45,-45
;   overlapInternalInfillAngles,0
;   externalInfillAngles,45,-45
;   generateSupport,1
;   supportExtruder,0
;   supportInfillPercentage,45
;   supportExtraInflation,0
;   supportBaseLayers,0
;   denseSupportExtruder,0
;   denseSupportLayers,0
;   denseSupportInfillPercentage,70
;   supportLayerInterval,1
;   supportHorizontalPartOffset,0.3
;   supportUpperSeparationLayers,1
;   supportLowerSeparationLayers,1
;   supportType,0
;   supportGridSpacing,4
;   maxOverhangAngle,89
;   supportAngles,0
;   temperatureName,Primary Extruder,Heated Bed
;   temperatureNumber,0,1
;   temperatureSetpointCount,1,1
;   temperatureSetpointLayers,1,1
;   temperatureSetpointTemperatures,195,50
;   temperatureStabilizeAtStartup,1,1
;   temperatureHeatedBed,0,1
;   temperatureRelayBetweenLayers,0,0
;   temperatureRelayBetweenLoops,0,0
;   fanLayers,1,2
;   fanSpeeds,0,100
;   blipFanToFullPower,0
;   adjustSpeedForCooling,1
;   minSpeedLayerTime,15
;   minCoolingSpeedSlowdown,20
;   increaseFanForCooling,0
;   minFanLayerTime,45
;   maxCoolingFanSpeed,100
;   increaseFanForBridging,0
;   bridgingFanSpeed,100
;   use5D,1
;   relativeEdistances,0
;   allowEaxisZeroing,1
;   independentExtruderAxes,0
;   includeM10123,0
;   stickySupport,1
;   applyToolheadOffsets,0
;   gcodeXoffset,0
;   gcodeYoffset,0
;   gcodeZoffset,0
;   overrideMachineDefinition,1
;   machineTypeOverride,0
;   strokeXoverride,212
;   strokeYoverride,305
;   strokeZoverride,220
;   originOffsetXoverride,0
;   originOffsetYoverride,0
;   originOffsetZoverride,0
;   homeXdirOverride,-1
;   homeYdirOverride,-1
;   homeZdirOverride,-1
;   flipXoverride,1
;   flipYoverride,-1
;   flipZoverride,1
;   toolheadOffsets,0,0|0,0|0,0|0,0|0,0|0,0
;   overrideFirmwareConfiguration,0
;   firmwareTypeOverride,RepRap (Marlin/Repetier/Sprinter)
;   GPXconfigOverride,r2
;   baudRateOverride,115200
;   overridePrinterModels,0
;   printerModelsOverride
;   startingGcode,G28 ; home all axes,G1 Z30 F3000,M106 S1 [Enciende ventilador de capa],M140 S[bed1_temperature],M104 S[extruder0_temperature],M109 S[extruder0_temperature],G29 S1,G92 E0,M106 S0 (Apaga Ventilador de capa ],G1 X0 Y0 Z0.2 F3000 ; go outside printing area,G1 X60.0 E9.0  F1000.0 ; intro line,G1 X100.0 E12.5  F1000.0 ; intro line,G92 E0
;   layerChangeGcode,
;   retractionGcode,
;   toolChangeGcode,
;   endingGcode,G28 Y0 X0 ,M104 S0 ; turn off extruder,M140 S0 ; turn off bed,M84 ; disable motors,M107 ; turn off fan,
;   exportFileFormat,gcode
;   celebration,0
;   celebrationSong,Star Wars
;   postProcessing,
;   defaultSpeed,4200
;   outlineUnderspeed,0.4
;   solidInfillUnderspeed,0.6
;   supportUnderspeed,0.7
;   rapidXYspeed,6000
;   rapidZspeed,900
;   minBridgingArea,50
;   bridgingExtraInflation,1
;   bridgingExtrusionMultiplier,0.8
;   bridgingSpeedMultiplier,1.2
;   useFixedBridgingAngle,0
;   fixedBridgingAngle,0
;   applyBridgingToPerimeters,0
;   filamentDiameters,1.75|1.75|1.75|1.75|1.75|1.75
;   filamentPricesPerKg,16|16|16|16|16|16
;   filamentDensities,1.25|1.25|1.25|1.25|1.25|1.25
;   useMinPrintHeight,0
;   minPrintHeight,0
;   useMaxPrintHeight,0
;   maxPrintHeight,50
;   useDiaphragm,0
;   diaphragmLayerInterval,20
;   robustSlicing,1
;   mergeAllIntoSolid,0
;   onlyRetractWhenCrossingOutline,1
;   retractBetweenLayers,1
;   useRetractionMinTravel,1
;   retractionMinTravel,3
;   retractWhileWiping,1
;   onlyWipeOutlines,1
;   avoidCrossingOutline,1
;   maxMovementDetourFactor,5
;   toolChangeRetractionDistance,12
;   toolChangeExtraRestartDistance,-0.5
;   toolChangeRetractionSpeed,600
;   externalThinWallType,0
;   internalThinWallType,1
;   thinWallAllowedOverlapPercentage,10
;   singleExtrusionMinLength,1
;   singleExtrusionMinPrintingWidthPercentage,50
;   singleExtrusionMaxPrintingWidthPercentage,200
;   singleExtrusionEndpointExtension,0.2
;   horizontalSizeCompensation,0
G90
M82
G28 ; home all axes
G1 Z30 F3000
M106 S1 [Enciende ventilador de capa]
M140 S50
M104 S195
M109 S195
G29 S1
G92 E0
M106 S0 (Apaga Ventilador de capa ]
G1 X0 Y0 Z0.2 F3000 ; go outside printing area
G1 X60.0 E9.0  F1000.0 ; intro line
G1 X100.0 E12.5  F1000.0 ; intro line
G92 E0
G92 E0
G1 E-1.3000 F1800
G1 Z0.180 F900
; process Process1
; layer 1, Z = 0.180
M106 S0
T0
; tool H0.200 W0.408
; skirt
G1 X0.285 Y-1.285 F6000
G1 E0.0000 F540
G92 E0
G1 X0.318 Y-1.364 E0.0028 F2100
G1 X2.136 Y-3.182 E0.0857
G1 X2.215 Y-3.215 E0.0885
G1 X209.785 Y-3.215 E6.7865
G1 X209.864 Y-3.182 E6.7892
G1 X211.682 Y-1.364 E6.8722
G1 X211.715 Y-1.285 E6.8750
G1 X211.715 Y306.285 E16.7998
G1 X211.682 Y306.364 E16.8026
G1 X209.864 Y308.182 E16.8856
G1 X209.785 Y308.215 E16.8883
G1 X2.215 Y308.215 E23.5863
G1 X2.136 Y308.182 E23.5891
G1 X0.318 Y306.364 E23.6720
G1 X0.285 Y306.285 E23.6748
G1 X0.285 Y-0.985 E33.5900
G1 X0.285 Y-1.285 F2100
G92 E0
G1 E-1.3000 F1800
; inner perimeter
G1 X3.700 Y0.200 F6000
G1 X3.700 Y0.408 F6000
G1 X4.113 Y0.613 F6000
G1 E0.0000 F1800
G92 E0
G1 X207.887 Y0.613 E6.5755 F1470
G1 X207.887 Y304.387 E16.3779
G1 X4.113 Y304.387 E22.9534
G1 X4.113 Y0.913 E32.7461
G1 X4.113 Y0.613 F1470
; outer perimeter
G1 X3.704 Y0.204 F6000
G92 E0
G1 X208.296 Y0.204 E6.6019 F840
G1 X208.296 Y304.796 E16.4306
G1 X3.704 Y304.796 E23.0325
G1 X3.704 Y0.504 E32.8515
G1 X3.704 Y0.204 F840
G1 X6.738 Y0.204 F4200
; inner perimeter
G1 X12.887 Y9.387 F6000
G92 E0
G1 X12.887 Y295.613 E9.2361 F1470
G1 X199.113 Y295.613 E15.2453
G1 X199.113 Y9.387 E24.4814
G1 X13.187 Y9.387 E30.4810
G1 X12.887 Y9.387 F1470
; outer perimeter
G1 X13.296 Y9.796 F6000
G92 E0
G1 X13.296 Y295.204 E9.2097 F840
G1 X198.704 Y295.204 E15.1926
G1 X198.704 Y9.796 E24.4023
G1 X13.596 Y9.796 E30.3755
G1 X13.296 Y9.796 F840
G1 X13.296 Y12.829 F4200
; solid layer
G1 X13.300 Y12.829 F6000
G1 X13.300 Y9.800 F6000
G1 X198.700 Y9.800 F6000
G1 X198.700 Y10.225 F6000
G1 X199.419 Y10.215 F6000
G92 E0
G1 X207.581 Y18.377 E0.3725 F1260
G1 X207.581 Y18.954 E0.3911
G1 X199.419 Y10.793 E0.7636
G1 X199.419 Y11.370 E0.7822
G1 X207.581 Y19.532 E1.1547
G1 X207.581 Y20.110 E1.1733
G1 X199.419 Y11.948 E1.5458
G1 X199.419 Y12.526 E1.5644
G1 X207.581 Y20.688 E1.9369
G1 X207.581 Y21.265 E1.9555
G1 X199.419 Y13.104 E2.3280
G1 X199.419 Y13.681 E2.3466
G1 X207.581 Y21.843 E2.7191
G1 X207.581 Y22.421 E2.7377
G1 X199.419 Y14.259 E3.1102
G1 X199.419 Y14.837 E3.1288
G1 X207.581 Y22.998 E3.5013
G1 X207.581 Y23.576 E3.5199
G1 X199.419 Y15.414 E3.8924
G1 X199.419 Y15.992 E3.9110
G1 X207.581 Y24.154 E4.2835
G1 X207.581 Y24.731 E4.3021
G1 X199.419 Y16.570 E4.6746
G1 X199.419 Y17.147 E4.6932
G1 X207.581 Y25.309 E5.0657
G1 X207.581 Y25.887 E5.0843
G1 X199.419 Y17.725 E5.4568
G1 X199.419 Y18.303 E5.4754
G1 X207.581 Y26.465 E5.8479
G1 X207.581 Y27.042 E5.8665
G1 X199.419 Y18.881 E6.2390
G1 X199.419 Y19.458 E6.2576
G1 X207.581 Y27.620 E6.6301
G1 X207.581 Y28.198 E6.6487
G1 X199.419 Y20.036 E7.0212
G1 X199.419 Y20.614 E7.0398
G1 X207.581 Y28.775 E7.4123
G1 X207.581 Y29.353 E7.4309
G1 X199.419 Y21.191 E7.8034
G1 X199.419 Y21.769 E7.8220
G1 X207.581 Y29.931 E8.1945
G1 X207.581 Y30.509 E8.2131
G1 X199.419 Y22.347 E8.5856
G1 X199.419 Y22.925 E8.6042
G1 X207.581 Y31.086 E8.9767
G1 X207.581 Y31.664 E8.9953
G1 X199.419 Y23.502 E9.3678
G1 X199.419 Y24.080 E9.3864
G1 X207.581 Y32.242 E9.7589
G1 X207.581 Y32.819 E9.7775
G1 X199.419 Y24.658 E10.1500
G1 X199.419 Y25.235 E10.1686
G1 X207.581 Y33.397 E10.5411
G1 X207.581 Y33.975 E10.5597
G1 X199.419 Y25.813 E10.9322
G1 X199.419 Y26.391 E10.9508
G1 X207.581 Y34.552 E11.3233
G1 X207.581 Y35.130 E11.3419
G1 X199.419 Y26.968 E11.7144
G1 X199.419 Y27.546 E11.7330
G1 X207.581 Y35.708 E12.1055
G1 X207.581 Y36.286 E12.1241
G1 X199.419 Y28.124 E12.4966
G1 X199.419 Y28.702 E12.5152
G1 X207.581 Y36.863 E12.8877
G1 X207.581 Y37.441 E12.9063
G1 X199.419 Y29.279 E13.2788
G1 X199.419 Y29.857 E13.2974
G1 X207.581 Y38.019 E13.6699
G1 X207.581 Y38.596 E13.6885
G1 X199.419 Y30.435 E14.0610
G1 X199.419 Y31.012 E14.0796
G1 X207.581 Y39.174 E14.4521
G1 X207.581 Y39.752 E14.4707
G1 X199.419 Y31.590 E14.8432
G1 X199.419 Y32.168 E14.8618
G1 X207.581 Y40.330 E15.2343
G1 X207.581 Y40.907 E15.2529
G1 X199.419 Y32.746 E15.6254
G1 X199.419 Y33.323 E15.6440
G1 X207.581 Y41.485 E16.0165
G1 X207.581 Y42.063 E16.0351
G1 X199.419 Y33.901 E16.4076
G1 X199.419 Y34.479 E16.4262
G1 X207.581 Y42.640 E16.7987
G1 X207.581 Y43.218 E16.8173
G1 X199.419 Y35.056 E17.1898
G1 X199.419 Y35.634 E17.2084
G1 X207.581 Y43.796 E17.5809
G1 X207.581 Y44.374 E17.5995
G1 X199.419 Y36.212 E17.9720
G1 X199.419 Y36.789 E17.9906
G1 X207.581 Y44.951 E18.3631
G1 X207.581 Y45.529 E18.3817
G1 X199.419 Y37.367 E18.7542
G1 X199.419 Y37.945 E18.7728
G1 X207.581 Y46.107 E19.1453
G1 X207.581 Y46.684 E19.1639
G1 X199.419 Y38.523 E19.5364
G1 X199.419 Y39.100 E19.5550
G1 X207.581 Y47.262 E19.9275
G1 X207.581 Y47.840 E19.9461
G1 X199.419 Y39.678 E20.3186
G1 X199.419 Y40.256 E20.3372
G1 X207.581 Y48.417 E20.7097
G1 X207.581 Y48.995 E20.7283
G1 X199.419 Y40.833 E21.1008
G1 X199.419 Y41.411 E21.1194
G1 X207.581 Y49.573 E21.4919
G1 X207.581 Y50.151 E21.5105
G1 X199.419 Y41.989 E21.8830
G1 X199.419 Y42.567 E21.9016
G1 X207.581 Y50.728 E22.2741
G1 X207.581 Y51.306 E22.2927
G1 X199.419 Y43.144 E22.6652
G1 X199.419 Y43.722 E22.6838
G1 X207.581 Y51.884 E23.0563
G1 X207.581 Y52.461 E23.0749
G1 X199.419 Y44.300 E23.4474
G1 X199.419 Y44.877 E23.4660
G1 X207.581 Y53.039 E23.8385
G1 X207.581 Y53.617 E23.8571
G1 X199.419 Y45.455 E24.2296
G1 X199.419 Y46.033 E24.2482
G1 X207.581 Y54.195 E24.6207
G1 X207.581 Y54.772 E24.6393
G1 X199.419 Y46.610 E25.0118
G1 X199.419 Y47.188 E25.0304
G1 X207.581 Y55.350 E25.4029
G1 X207.581 Y55.928 E25.4215
G1 X199.419 Y47.766 E25.7940
G1 X199.419 Y48.344 E25.8126
G1 X207.581 Y56.505 E26.1851
G1 X207.581 Y57.083 E26.2037
G1 X199.419 Y48.921 E26.5762
G1 X199.419 Y49.499 E26.5948
G1 X207.581 Y57.661 E26.9673
G1 X207.581 Y58.238 E26.9859
G1 X199.419 Y50.077 E27.3584
G1 X199.419 Y50.654 E27.3770
G1 X207.581 Y58.816 E27.7495
G1 X207.581 Y59.394 E27.7681
G1 X199.419 Y51.232 E28.1406
G1 X199.419 Y51.810 E28.1592
G1 X207.581 Y59.972 E28.5317
G1 X207.581 Y60.549 E28.5503
G1 X199.419 Y52.388 E28.9228
G1 X199.419 Y52.965 E28.9414
G1 X207.581 Y61.127 E29.3139
G1 X207.581 Y61.705 E29.3325
G1 X199.419 Y53.543 E29.7050
G1 X199.419 Y54.121 E29.7236
G1 X207.581 Y62.282 E30.0961
G1 X207.581 Y62.860 E30.1147
G1 X199.419 Y54.698 E30.4872
G1 X199.419 Y55.276 E30.5058
G1 X207.581 Y63.438 E30.8783
G1 X207.581 Y64.016 E30.8969
G1 X199.419 Y55.854 E31.2694
G1 X199.419 Y56.431 E31.2880
G1 X207.581 Y64.593 E31.6605
G1 X207.581 Y65.171 E31.6791
G1 X199.419 Y57.009 E32.0516
G1 X199.419 Y57.587 E32.0702
G1 X207.581 Y65.749 E32.4427
G1 X207.581 Y66.326 E32.4613
G1 X199.419 Y58.165 E32.8338
G1 X199.419 Y58.742 E32.8524
G1 X207.581 Y66.904 E33.2249
G1 X207.581 Y67.482 E33.2435
G1 X199.419 Y59.320 E33.6160
G1 X199.419 Y59.898 E33.6346
G1 X207.581 Y68.059 E34.0071
G1 X207.581 Y68.637 E34.0257
G1 X199.419 Y60.475 E34.3982
G1 X199.419 Y61.053 E34.4168
G1 X207.581 Y69.215 E34.7893
G1 X207.581 Y69.793 E34.8079
G1 X199.419 Y61.631 E35.1804
G1 X199.419 Y62.209 E35.1990
G1 X207.581 Y70.370 E35.5715
G1 X207.581 Y70.948 E35.5901
G1 X199.419 Y62.786 E35.9626
G1 X199.419 Y63.364 E35.9812
G1 X207.581 Y71.526 E36.3537
G1 X207.581 Y72.103 E36.3723
G1 X199.419 Y63.942 E36.7448
G1 X199.419 Y64.519 E36.7634
G1 X207.581 Y72.681 E37.1359
G1 X207.581 Y73.259 E37.1545
G1 X199.419 Y65.097 E37.5270
G1 X199.419 Y65.675 E37.5456
G1 X207.581 Y73.837 E37.9181
G1 X207.581 Y74.414 E37.9367
G1 X199.419 Y66.252 E38.3092
G1 X199.419 Y66.830 E38.3278
G1 X207.581 Y74.992 E38.7003
G1 X207.581 Y75.570 E38.7189
G1 X199.419 Y67.408 E39.0914
G1 X199.419 Y67.986 E39.1100
G1 X207.581 Y76.147 E39.4825
G1 X207.581 Y76.725 E39.5011
G1 X199.419 Y68.563 E39.8736
G1 X199.419 Y69.141 E39.8922
G1 X207.581 Y77.303 E40.2647
G1 X207.581 Y77.880 E40.2833
G1 X199.419 Y69.719 E40.6558
G1 X199.419 Y70.296 E40.6744
G1 X207.581 Y78.458 E41.0469
G1 X207.581 Y79.036 E41.0655
G1 X199.419 Y70.874 E41.4380
G1 X199.419 Y71.452 E41.4566
G1 X207.581 Y79.614 E41.8291
G1 X207.581 Y80.191 E41.8477
G1 X199.419 Y72.030 E42.2202
G1 X199.419 Y72.607 E42.2388
G1 X207.581 Y80.769 E42.6113
G1 X207.581 Y81.347 E42.6299
G1 X199.419 Y73.185 E43.0024
G1 X199.419 Y73.763 E43.0210
G1 X207.581 Y81.924 E43.3935
G1 X207.581 Y82.502 E43.4121
G1 X199.419 Y74.340 E43.7846
G1 X199.419 Y74.918 E43.8032
G1 X207.581 Y83.080 E44.1757
G1 X207.581 Y83.658 E44.1943
G1 X199.419 Y75.496 E44.5668
G1 X199.419 Y76.073 E44.5854
G1 X207.581 Y84.235 E44.9579
G1 X207.581 Y84.813 E44.9765
G1 X199.419 Y76.651 E45.3490
G1 X199.419 Y77.229 E45.3676
G1 X207.581 Y85.391 E45.7401
G1 X207.581 Y85.968 E45.7587
G1 X199.419 Y77.807 E46.1312
G1 X199.419 Y78.384 E46.1498
G1 X207.581 Y86.546 E46.5223
G1 X207.581 Y87.124 E46.5409
G1 X199.419 Y78.962 E46.9134
G1 X199.419 Y79.540 E46.9320
G1 X207.581 Y87.701 E47.3045
G1 X207.581 Y88.279 E47.3231
G1 X199.419 Y80.117 E47.6956
G1 X199.419 Y80.695 E47.7142
G1 X207.581 Y88.857 E48.0867
G1 X207.581 Y89.435 E48.1053
G1 X199.419 Y81.273 E48.4778
G1 X199.419 Y81.851 E48.4964
G1 X207.581 Y90.012 E48.8689
G1 X207.581 Y90.590 E48.8875
G1 X199.419 Y82.428 E49.2600
G1 X199.419 Y83.006 E49.2786
G1 X207.581 Y91.168 E49.6511
G1 X207.581 Y91.745 E49.6697
G1 X199.419 Y83.584 E50.0422
G1 X199.419 Y84.161 E50.0608
G1 X207.581 Y92.323 E50.4333
G1 X207.581 Y92.901 E50.4519
G1 X199.419 Y84.739 E50.8244
G1 X199.419 Y85.317 E50.8430
G1 X207.581 Y93.479 E51.2155
G1 X207.581 Y94.056 E51.2341
G1 X199.419 Y85.894 E51.6066
G1 X199.419 Y86.472 E51.6252
G1 X207.581 Y94.634 E51.9977
G1 X207.581 Y95.212 E52.0163
G1 X199.419 Y87.050 E52.3888
G1 X199.419 Y87.628 E52.4074
G1 X207.581 Y95.789 E52.7799
G1 X207.581 Y96.367 E52.7985
G1 X199.419 Y88.205 E53.1710
G1 X199.419 Y88.783 E53.1896
G1 X207.581 Y96.945 E53.5621
G1 X207.581 Y97.522 E53.5807
G1 X199.419 Y89.361 E53.9532
G1 X199.419 Y89.938 E53.9718
G1 X207.581 Y98.100 E54.3443
G1 X207.581 Y98.678 E54.3629
G1 X199.419 Y90.516 E54.7354
G1 X199.419 Y91.094 E54.7540
G1 X207.581 Y99.256 E55.1265
G1 X207.581 Y99.833 E55.1451
G1 X199.419 Y91.672 E55.5176
G1 X199.419 Y92.249 E55.5362
