; G-Code generated by Simplify3D(R) Version 4.0.1
; Nov 2, 2018 at 9:45:31 PM
; Settings Summary
;   processName,Process1
;   applyToModels,2LayerfanSupport
;   profileName,P3Steel 300x200 Autolevel DUET3D
;   profileVersion,2018-11-02 19:42:49
;   baseProfile,Default
;   printMaterial,PLA
;   printQuality,Medium
;   printExtruders,
;   extruderName,Primary Extruder
;   extruderToolheadNumber,0
;   extruderDiameter,0.4
;   extruderAutoWidth,0
;   extruderWidth,0.43
;   extrusionMultiplier,0.95
;   extruderUseRetract,1
;   extruderRetractionDistance,1.3
;   extruderExtraRestartDistance,0
;   extruderRetractionZLift,0
;   extruderRetractionSpeed,1800
;   extruderUseCoasting,1
;   extruderCoastingDistance,0.3
;   extruderUseWipe,1
;   extruderWipeDistance,1.2
;   primaryExtruder,0
;   layerHeight,0.2
;   topSolidLayers,3
;   bottomSolidLayers,3
;   perimeterOutlines,2
;   printPerimetersInsideOut,1
;   startPointOption,3
;   startPointOriginX,0
;   startPointOriginY,0
;   sequentialIslands,0
;   spiralVaseMode,0
;   firstLayerHeightPercentage,90
;   firstLayerWidthPercentage,95
;   firstLayerUnderspeed,0.5
;   useRaft,0
;   raftExtruder,0
;   raftTopLayers,1
;   raftBaseLayers,1
;   raftOffset,3
;   raftSeparationDistance,0.14
;   raftTopInfill,100
;   aboveRaftSpeedMultiplier,0.3
;   useSkirt,1
;   skirtExtruder,0
;   skirtLayers,1
;   skirtOutlines,1
;   skirtOffset,3
;   usePrimePillar,0
;   primePillarExtruder,999
;   primePillarWidth,12
;   primePillarLocation,7
;   primePillarSpeedMultiplier,1
;   useOozeShield,0
;   oozeShieldExtruder,999
;   oozeShieldOffset,2
;   oozeShieldOutlines,1
;   oozeShieldSidewallShape,1
;   oozeShieldSidewallAngle,30
;   oozeShieldSpeedMultiplier,1
;   infillExtruder,0
;   internalInfillPattern,Rectilinear
;   externalInfillPattern,Rectilinear
;   infillPercentage,35
;   outlineOverlapPercentage,25
;   infillExtrusionWidthPercentage,100
;   minInfillLength,2
;   infillLayerInterval,1
;   internalInfillAngles,45,-45
;   overlapInternalInfillAngles,0
;   externalInfillAngles,45,-45
;   generateSupport,1
;   supportExtruder,0
;   supportInfillPercentage,45
;   supportExtraInflation,0
;   supportBaseLayers,0
;   denseSupportExtruder,0
;   denseSupportLayers,0
;   denseSupportInfillPercentage,70
;   supportLayerInterval,1
;   supportHorizontalPartOffset,0.3
;   supportUpperSeparationLayers,1
;   supportLowerSeparationLayers,1
;   supportType,0
;   supportGridSpacing,4
;   maxOverhangAngle,89
;   supportAngles,0
;   temperatureName,Primary Extruder,Heated Bed
;   temperatureNumber,0,1
;   temperatureSetpointCount,1,1
;   temperatureSetpointLayers,1,1
;   temperatureSetpointTemperatures,195,50
;   temperatureStabilizeAtStartup,1,1
;   temperatureHeatedBed,0,1
;   temperatureRelayBetweenLayers,0,0
;   temperatureRelayBetweenLoops,0,0
;   fanLayers,1,2
;   fanSpeeds,0,100
;   blipFanToFullPower,0
;   adjustSpeedForCooling,1
;   minSpeedLayerTime,15
;   minCoolingSpeedSlowdown,20
;   increaseFanForCooling,0
;   minFanLayerTime,45
;   maxCoolingFanSpeed,100
;   increaseFanForBridging,0
;   bridgingFanSpeed,100
;   use5D,1
;   relativeEdistances,0
;   allowEaxisZeroing,1
;   independentExtruderAxes,0
;   includeM10123,0
;   stickySupport,1
;   applyToolheadOffsets,0
;   gcodeXoffset,0
;   gcodeYoffset,0
;   gcodeZoffset,0
;   overrideMachineDefinition,1
;   machineTypeOverride,0
;   strokeXoverride,212
;   strokeYoverride,305
;   strokeZoverride,220
;   originOffsetXoverride,0
;   originOffsetYoverride,0
;   originOffsetZoverride,0
;   homeXdirOverride,-1
;   homeYdirOverride,-1
;   homeZdirOverride,-1
;   flipXoverride,1
;   flipYoverride,-1
;   flipZoverride,1
;   toolheadOffsets,0,0|0,0|0,0|0,0|0,0|0,0
;   overrideFirmwareConfiguration,0
;   firmwareTypeOverride,RepRap (Marlin/Repetier/Sprinter)
;   GPXconfigOverride,r2
;   baudRateOverride,115200
;   overridePrinterModels,0
;   printerModelsOverride
;   startingGcode,G28 ; home all axes,G1 Z30 F3000,M106 S1 [Enciende ventilador de capa],M140 S[bed1_temperature],M104 S[extruder0_temperature],M109 S[extruder0_temperature],G29 S1,G92 E0,M106 S0 (Apaga Ventilador de capa ],G1 X0 Y0 Z0.2 F3000 ; go outside printing area,G1 X60.0 E9.0  F1000.0 ; intro line,G1 X100.0 E12.5  F1000.0 ; intro line,G92 E0
;   layerChangeGcode,
;   retractionGcode,
;   toolChangeGcode,
;   endingGcode,G28 Y0 X0 ,M104 S0 ; turn off extruder,M140 S0 ; turn off bed,M84 ; disable motors,M107 ; turn off fan,
;   exportFileFormat,gcode
;   celebration,0
;   celebrationSong,Star Wars
;   postProcessing,
;   defaultSpeed,4200
;   outlineUnderspeed,0.4
;   solidInfillUnderspeed,0.6
;   supportUnderspeed,0.7
;   rapidXYspeed,6000
;   rapidZspeed,900
;   minBridgingArea,50
;   bridgingExtraInflation,1
;   bridgingExtrusionMultiplier,0.8
;   bridgingSpeedMultiplier,1.2
;   useFixedBridgingAngle,0
;   fixedBridgingAngle,0
;   applyBridgingToPerimeters,0
;   filamentDiameters,1.75|1.75|1.75|1.75|1.75|1.75
;   filamentPricesPerKg,16|16|16|16|16|16
;   filamentDensities,1.25|1.25|1.25|1.25|1.25|1.25
;   useMinPrintHeight,0
;   minPrintHeight,0
;   useMaxPrintHeight,0
;   maxPrintHeight,50
;   useDiaphragm,0
;   diaphragmLayerInterval,20
;   robustSlicing,1
;   mergeAllIntoSolid,0
;   onlyRetractWhenCrossingOutline,1
;   retractBetweenLayers,1
;   useRetractionMinTravel,1
;   retractionMinTravel,3
;   retractWhileWiping,1
;   onlyWipeOutlines,1
;   avoidCrossingOutline,1
;   maxMovementDetourFactor,5
;   toolChangeRetractionDistance,12
;   toolChangeExtraRestartDistance,-0.5
;   toolChangeRetractionSpeed,600
;   externalThinWallType,0
;   internalThinWallType,1
;   thinWallAllowedOverlapPercentage,10
;   singleExtrusionMinLength,1
;   singleExtrusionMinPrintingWidthPercentage,50
;   singleExtrusionMaxPrintingWidthPercentage,200
;   singleExtrusionEndpointExtension,0.2
;   horizontalSizeCompensation,0
G90
M82
G28 ; home all axes
G1 Z30 F3000
M106 S1 [Enciende ventilador de capa]
M140 S50
M104 S195
M109 S195
G29 S1
G92 E0
M106 S0 (Apaga Ventilador de capa ]
G1 X0 Y0 Z0.2 F3000 ; go outside printing area
G1 X60.0 E9.0  F1000.0 ; intro line
G1 X100.0 E12.5  F1000.0 ; intro line
G92 E0
G92 E0
G1 E-1.3000 F1800
G1 Z0.180 F900
; process Process1
; layer 1, Z = 0.180
M106 S0
T0
; tool H0.200 W0.408
; skirt
G1 X109.617 Y109.872 F6000
G1 E0.0000 F540
G92 E0
G1 X109.696 Y109.840 E0.0028 F2100
G1 X116.747 Y109.840 E0.2303
G1 X116.826 Y109.872 E0.2330
G1 X118.644 Y111.690 E0.3160
G1 X118.677 Y111.769 E0.3188
G1 X118.677 Y114.489 E0.4065
G1 X118.979 Y114.791 E0.4203
G1 X119.012 Y114.870 E0.4231
G1 X119.012 Y117.657 E0.5130
G1 X119.020 Y117.666 E0.5134
G1 X119.052 Y117.745 E0.5161
G1 X119.052 Y119.994 E0.5887
G1 X119.086 Y120.027 E0.5903
G1 X119.119 Y120.106 E0.5930
G1 X119.119 Y123.258 E0.6947
G1 X119.227 Y123.366 E0.6996
G1 X119.260 Y123.445 E0.7024
G1 X119.260 Y130.496 E0.9299
G1 X119.255 Y130.508 E0.9303
G1 X119.255 Y131.446 E0.9606
G1 X119.433 Y131.625 E0.9688
G1 X119.466 Y131.704 E0.9715
G1 X119.466 Y138.754 E1.1990
G1 X119.433 Y138.833 E1.2018
G1 X118.957 Y139.310 E1.2236
G1 X118.957 Y144.102 E1.3782
G1 X118.924 Y144.181 E1.3810
G1 X117.915 Y145.190 E1.4270
G1 X117.915 Y190.544 E2.8905
G1 X117.882 Y190.623 E2.8933
G1 X116.389 Y192.116 E2.9614
G1 X116.389 Y195.581 E3.0732
G1 X116.356 Y195.660 E3.0760
G1 X114.538 Y197.478 E3.1589
G1 X114.459 Y197.511 E3.1617
G1 X107.409 Y197.511 E3.3892
G1 X107.330 Y197.478 E3.3920
G1 X107.268 Y197.416 E3.3948
G1 X101.576 Y197.416 E3.5784
G1 X101.497 Y197.383 E3.5812
G1 X101.473 Y197.360 E3.5823
G1 X96.009 Y197.360 E3.7586
G1 X95.930 Y197.327 E3.7614
G1 X94.112 Y195.509 E3.8443
G1 X94.079 Y195.430 E3.8471
G1 X94.079 Y191.393 E3.9774
G1 X93.309 Y190.623 E4.0125
G1 X93.276 Y190.544 E4.0153
G1 X93.282 Y141.892 E5.5852
G1 X93.314 Y141.813 E5.5879
G1 X95.132 Y139.996 E5.6709
G1 X95.211 Y139.963 E5.6737
G1 X107.666 Y139.963 E6.0755
G1 X107.666 Y133.553 E6.2824
G1 X107.698 Y133.474 E6.2851
G1 X108.291 Y132.881 E6.3122
G1 X108.291 Y127.286 E6.4928
G1 X108.242 Y127.236 E6.4950
G1 X108.209 Y127.157 E6.4978
G1 X108.209 Y124.908 E6.5703
G1 X108.175 Y124.874 E6.5719
G1 X108.142 Y124.795 E6.5746
G1 X108.142 Y122.008 E6.6646
G1 X108.134 Y122.000 E6.6649
G1 X108.102 Y121.921 E6.6677
G1 X108.102 Y119.201 E6.7555
G1 X107.800 Y118.899 E6.7693
G1 X107.767 Y118.820 E6.7720
G1 X107.767 Y111.769 E6.9995
G1 X107.800 Y111.690 E7.0023
G1 X109.405 Y110.084 E7.0756
G1 X109.617 Y109.872 F2100
G92 E0
G1 E-1.3000 F1800
; inner perimeter
G1 X114.500 Y143.378 F6000
G1 X97.261 Y143.378 F6000
G1 X97.109 Y143.791 F6000
G1 E0.0000 F1800
G92 E0
G1 X114.087 Y143.791 E0.5479 F1470
G1 X114.087 Y188.646 E1.9953
G1 X97.104 Y188.646 E2.5433
G1 X97.109 Y144.091 E3.9810
G1 X97.109 Y143.791 F1470
; outer perimeter
G1 X96.701 Y143.382 F6000
G92 E0
G1 X114.496 Y143.382 E0.5742 F840
G1 X114.496 Y189.054 E2.0480
G1 X96.696 Y189.054 E2.6224
G1 X96.701 Y143.682 E4.0865
G1 X96.701 Y143.382 F840
G1 X99.734 Y143.382 F4200
; solid layer
G1 X113.773 Y144.097 F6000
G92 E0
G1 X113.781 Y144.105 E0.0004 F1260
G1 X113.781 Y144.683 E0.0190
G1 X113.195 Y144.097 E0.0457
G1 X112.617 Y144.097 E0.0644
G1 X113.781 Y145.260 E0.1175
G1 X113.781 Y145.838 E0.1361
G1 X112.040 Y144.097 E0.2156
G1 X111.462 Y144.097 E0.2342
G1 X113.781 Y146.416 E0.3400
G1 X113.781 Y146.994 E0.3587
G1 X110.884 Y144.097 E0.4909
G1 X110.307 Y144.097 E0.5095
G1 X113.781 Y147.571 E0.6681
G1 X113.781 Y148.149 E0.6867
G1 X109.729 Y144.097 E0.8716
G1 X109.151 Y144.097 E0.8903
G1 X113.781 Y148.727 E1.1015
G1 X113.781 Y149.304 E1.1202
G1 X108.573 Y144.097 E1.3578
G1 X107.996 Y144.097 E1.3765
G1 X113.781 Y149.882 E1.6405
G1 X113.781 Y150.460 E1.6591
G1 X107.418 Y144.097 E1.9495
G1 X106.840 Y144.097 E1.9681
G1 X113.781 Y151.038 E2.2848
G1 X113.781 Y151.615 E2.3035
G1 X106.263 Y144.097 E2.6466
G1 X105.685 Y144.097 E2.6652
G1 X113.781 Y152.193 E3.0347
G1 X113.781 Y152.771 E3.0533
G1 X105.107 Y144.097 E3.4491
G1 X104.529 Y144.097 E3.4678
G1 X113.781 Y153.348 E3.8900
G1 X113.781 Y153.926 E3.9086
G1 X103.952 Y144.097 E4.3572
G1 X103.374 Y144.097 E4.3758
G1 X113.781 Y154.504 E4.8507
G1 X113.781 Y155.081 E4.8693
G1 X102.796 Y144.097 E5.3706
G1 X102.219 Y144.097 E5.3893
G1 X113.781 Y155.659 E5.9169
G1 X113.781 Y156.237 E5.9355
G1 X101.641 Y144.097 E6.4895
G1 X101.063 Y144.097 E6.5082
G1 X113.781 Y156.815 E7.0885
G1 X113.781 Y157.392 E7.1072
G1 X100.486 Y144.097 E7.7139
G1 X99.908 Y144.097 E7.7326
G1 X113.781 Y157.970 E8.3656
G1 X113.781 Y158.548 E8.3843
G1 X99.330 Y144.097 E9.0437
G1 X98.752 Y144.097 E9.0624
G1 X113.781 Y159.125 E9.7482
G1 X113.781 Y159.703 E9.7668
G1 X98.175 Y144.097 E10.4790
G1 X97.597 Y144.097 E10.4977
G1 X113.781 Y160.281 E11.2362
G1 X113.781 Y160.859 E11.2549
G1 X97.415 Y144.493 E12.0017
G1 X97.415 Y145.071 E12.0203
G1 X113.781 Y161.436 E12.7672
G1 X113.781 Y162.014 E12.7858
G1 X97.415 Y145.648 E13.5326
G1 X97.415 Y146.226 E13.5513
G1 X113.781 Y162.592 E14.2981
G1 X113.781 Y163.169 E14.3168
G1 X97.415 Y146.804 E15.0636
G1 X97.415 Y147.381 E15.0822
G1 X113.781 Y163.747 E15.8291
G1 X113.781 Y164.325 E15.8477
G1 X97.415 Y147.959 E16.5946
G1 X97.415 Y148.537 E16.6132
G1 X113.781 Y164.903 E17.3601
G1 X113.781 Y165.480 E17.3787
G1 X97.415 Y149.114 E18.1256
G1 X97.415 Y149.692 E18.1442
G1 X113.781 Y166.058 E18.8911
G1 X113.781 Y166.636 E18.9097
G1 X97.415 Y150.270 E19.6566
G1 X97.415 Y150.847 E19.6752
G1 X113.781 Y167.213 E20.4221
G1 X113.781 Y167.791 E20.4407
G1 X97.415 Y151.425 E21.1876
G1 X97.415 Y152.002 E21.2062
G1 X113.781 Y168.369 E21.9531
G1 X113.781 Y168.946 E21.9717
G1 X97.415 Y152.580 E22.7186
G1 X97.414 Y153.158 E22.7372
G1 X113.781 Y169.524 E23.4841
G1 X113.781 Y170.102 E23.5028
G1 X97.414 Y153.735 E24.2496
G1 X97.414 Y154.313 E24.2683
G1 X113.781 Y170.680 E25.0152
G1 X113.781 Y171.257 E25.0338
G1 X97.414 Y154.891 E25.7807
G1 X97.414 Y155.468 E25.7993
G1 X113.781 Y171.835 E26.5462
G1 X113.781 Y172.413 E26.5648
G1 X97.414 Y156.046 E27.3117
G1 X97.414 Y156.624 E27.3304
G1 X113.781 Y172.990 E28.0773
G1 X113.781 Y173.568 E28.0959
G1 X97.414 Y157.201 E28.8428
G1 X97.414 Y157.779 E28.8614
G1 X113.781 Y174.146 E29.6083
G1 X113.781 Y174.724 E29.6270
G1 X97.414 Y158.357 E30.3739
G1 X97.414 Y158.934 E30.3925
G1 X113.781 Y175.301 E31.1394
G1 X113.781 Y175.879 E31.1581
G1 X97.414 Y159.512 E31.9050
G1 X97.414 Y160.090 E31.9236
G1 X113.781 Y176.457 E32.6705
G1 X113.781 Y177.034 E32.6892
G1 X97.414 Y160.667 E33.4361
G1 X97.414 Y161.245 E33.4547
G1 X113.781 Y177.612 E34.2016
G1 X113.781 Y178.190 E34.2203
G1 X97.414 Y161.822 E34.9672
G1 X97.414 Y162.400 E34.9858
G1 X113.781 Y178.767 E35.7327
G1 X113.781 Y179.345 E35.7514
G1 X97.413 Y162.978 E36.4983
G1 X97.413 Y163.555 E36.5169
G1 X113.781 Y179.923 E37.2639
G1 X113.781 Y180.501 E37.2825
G1 X97.413 Y164.133 E38.0294
G1 X97.413 Y164.711 E38.0481
G1 X113.781 Y181.078 E38.7950
G1 X113.781 Y181.656 E38.8136
G1 X97.413 Y165.288 E39.5606
G1 X97.413 Y165.866 E39.5792
G1 X113.781 Y182.234 E40.3262
G1 X113.781 Y182.811 E40.3448
G1 X97.413 Y166.444 E41.0917
G1 X97.413 Y167.021 E41.1104
G1 X113.781 Y183.389 E41.8573
G1 X113.781 Y183.967 E41.8760
G1 X97.413 Y167.599 E42.6229
G1 X97.413 Y168.177 E42.6415
G1 X113.781 Y184.545 E43.3885
G1 X113.781 Y185.122 E43.4071
G1 X97.413 Y168.754 E44.1541
G1 X97.413 Y169.332 E44.1727
G1 X113.781 Y185.700 E44.9197
G1 X113.781 Y186.278 E44.9383
G1 X97.413 Y169.909 E45.6853
G1 X97.413 Y170.487 E45.7039
G1 X113.781 Y186.855 E46.4509
G1 X113.781 Y187.433 E46.4695
G1 X97.413 Y171.065 E47.2165
G1 X97.413 Y171.642 E47.2351
G1 X113.781 Y188.011 E47.9821
G1 X113.781 Y188.339 E47.9927
G1 X113.532 Y188.339 E48.0007
G1 X97.412 Y172.220 E48.7363
G1 X97.412 Y172.798 E48.7550
G1 X112.954 Y188.339 E49.4642
G1 X112.376 Y188.339 E49.4828
G1 X97.412 Y173.375 E50.1657
G1 X97.412 Y173.953 E50.1844
G1 X111.799 Y188.339 E50.8409
G1 X111.221 Y188.339 E50.8595
G1 X97.412 Y174.531 E51.4897
G1 X97.412 Y175.108 E51.5083
G1 X110.643 Y188.339 E52.1121
G1 X110.066 Y188.339 E52.1308
G1 X97.412 Y175.686 E52.7082
G1 X97.412 Y176.264 E52.7268
G1 X109.488 Y188.339 E53.2779
G1 X108.910 Y188.339 E53.2966
G1 X97.412 Y176.841 E53.8213
G1 X97.412 Y177.419 E53.8399
G1 X108.332 Y188.339 E54.3383
G1 X107.755 Y188.339 E54.3569
G1 X97.412 Y177.997 E54.8289
G1 X97.412 Y178.574 E54.8476
G1 X107.177 Y188.339 E55.2932
G1 X106.599 Y188.339 E55.3118
G1 X97.412 Y179.152 E55.7311
G1 X97.412 Y179.729 E55.7498
G1 X106.022 Y188.339 E56.1427
G1 X105.444 Y188.339 E56.1613
G1 X97.412 Y180.307 E56.5279
G1 X97.412 Y180.885 E56.5465
G1 X104.866 Y188.339 E56.8867
G1 X104.289 Y188.339 E56.9053
G1 X97.411 Y181.462 E57.2192
G1 X97.411 Y182.040 E57.2378
G1 X103.711 Y188.339 E57.5253
G1 X103.133 Y188.339 E57.5439
G1 X97.411 Y182.618 E57.8050
G1 X97.411 Y183.195 E57.8237
G1 X102.555 Y188.339 E58.0584
G1 X101.978 Y188.339 E58.0771
G1 X97.411 Y183.773 E58.2855
G1 X97.411 Y184.351 E58.3041
G1 X101.400 Y188.339 E58.4861
G1 X100.822 Y188.339 E58.5048
G1 X97.411 Y184.928 E58.6604
G1 X97.411 Y185.506 E58.6791
G1 X100.245 Y188.339 E58.8084
G1 X99.667 Y188.339 E58.8270
G1 X97.411 Y186.084 E58.9300
G1 X97.411 Y186.661 E58.9486
G1 X99.089 Y188.339 E59.0252
G1 X98.511 Y188.339 E59.0438
G1 X97.411 Y187.239 E59.0941
G1 X97.411 Y187.816 E59.1127
G1 X97.722 Y188.127 E59.1269
G1 X97.934 Y188.339 F1260
; support
G1 X97.519 Y189.986 F6000
G92 E0
G1 X101.549 Y189.986 E0.1300 F1470
G1 X101.549 Y190.942 E0.1609
G1 X97.519 Y190.942 E0.2909
G1 X97.519 Y191.897 E0.3218
G1 X101.549 Y191.897 E0.4518
G1 X101.549 Y192.853 E0.4826
G1 X97.519 Y192.853 E0.6127
G1 X97.519 Y193.808 E0.6435
G1 X101.249 Y193.808 E0.7639
G1 X101.549 Y193.808 F1470
G92 E0
G1 E-1.3000 F1800
G1 X103.086 Y189.986 F6000
G1 E0.0000 F1800
G92 E0
G1 X107.116 Y189.986 E0.1300 F1470
G1 X107.116 Y190.942 E0.1609
G1 X103.086 Y190.942 E0.2909
G1 X103.086 Y191.897 E0.3218
G1 X107.116 Y191.897 E0.4518
G1 X107.116 Y192.853 E0.4826
G1 X103.086 Y192.853 E0.6127
G1 X103.086 Y193.808 E0.6435
G1 X106.816 Y193.808 E0.7639
G1 X107.116 Y193.808 F1470
G1 X108.919 Y193.808 F6000
G92 E0
G1 X112.949 Y193.808 E0.1300 F1470
G1 X112.949 Y192.853 E0.1609
G1 X108.919 Y192.853 E0.2909
G1 X108.919 Y191.897 E0.3218
