; G-Code generated by Simplify3D(R) Version 4.0.1
; Nov 3, 2018 at 9:28:49 PM
; Settings Summary
;   processName,Process1
;   applyToModels,X-CarriageV2
;   profileName,P3Steel 300x200 Autolevel DUET3D
;   profileVersion,2018-11-02 19:42:49
;   baseProfile,Default
;   printMaterial,PETG
;   printQuality,Medium
;   printExtruders,
;   extruderName,Primary Extruder
;   extruderToolheadNumber,0
;   extruderDiameter,0.4
;   extruderAutoWidth,0
;   extruderWidth,0.43
;   extrusionMultiplier,1.05
;   extruderUseRetract,1
;   extruderRetractionDistance,1.3
;   extruderExtraRestartDistance,0
;   extruderRetractionZLift,0
;   extruderRetractionSpeed,1800
;   extruderUseCoasting,1
;   extruderCoastingDistance,0.3
;   extruderUseWipe,1
;   extruderWipeDistance,1.2
;   primaryExtruder,0
;   layerHeight,0.2
;   topSolidLayers,3
;   bottomSolidLayers,3
;   perimeterOutlines,2
;   printPerimetersInsideOut,1
;   startPointOption,3
;   startPointOriginX,0
;   startPointOriginY,0
;   sequentialIslands,0
;   spiralVaseMode,0
;   firstLayerHeightPercentage,90
;   firstLayerWidthPercentage,95
;   firstLayerUnderspeed,0.5
;   useRaft,0
;   raftExtruder,0
;   raftTopLayers,1
;   raftBaseLayers,1
;   raftOffset,3
;   raftSeparationDistance,0.14
;   raftTopInfill,100
;   aboveRaftSpeedMultiplier,0.3
;   useSkirt,1
;   skirtExtruder,0
;   skirtLayers,1
;   skirtOutlines,1
;   skirtOffset,3
;   usePrimePillar,0
;   primePillarExtruder,999
;   primePillarWidth,12
;   primePillarLocation,7
;   primePillarSpeedMultiplier,1
;   useOozeShield,0
;   oozeShieldExtruder,999
;   oozeShieldOffset,2
;   oozeShieldOutlines,1
;   oozeShieldSidewallShape,1
;   oozeShieldSidewallAngle,30
;   oozeShieldSpeedMultiplier,1
;   infillExtruder,0
;   internalInfillPattern,Rectilinear
;   externalInfillPattern,Rectilinear
;   infillPercentage,50
;   outlineOverlapPercentage,25
;   infillExtrusionWidthPercentage,100
;   minInfillLength,2
;   infillLayerInterval,1
;   internalInfillAngles,45,-45
;   overlapInternalInfillAngles,0
;   externalInfillAngles,45,-45
;   generateSupport,1
;   supportExtruder,0
;   supportInfillPercentage,45
;   supportExtraInflation,0
;   supportBaseLayers,0
;   denseSupportExtruder,0
;   denseSupportLayers,0
;   denseSupportInfillPercentage,70
;   supportLayerInterval,1
;   supportHorizontalPartOffset,0.3
;   supportUpperSeparationLayers,1
;   supportLowerSeparationLayers,1
;   supportType,0
;   supportGridSpacing,4
;   maxOverhangAngle,89
;   supportAngles,0
;   temperatureName,Primary Extruder,Heated Bed
;   temperatureNumber,0,1
;   temperatureSetpointCount,1,1
;   temperatureSetpointLayers,1,1
;   temperatureSetpointTemperatures,240,70
;   temperatureStabilizeAtStartup,1,1
;   temperatureHeatedBed,0,1
;   temperatureRelayBetweenLayers,0,0
;   temperatureRelayBetweenLoops,0,0
;   fanLayers,1
;   fanSpeeds,0
;   blipFanToFullPower,0
;   adjustSpeedForCooling,1
;   minSpeedLayerTime,15
;   minCoolingSpeedSlowdown,20
;   increaseFanForCooling,0
;   minFanLayerTime,45
;   maxCoolingFanSpeed,100
;   increaseFanForBridging,0
;   bridgingFanSpeed,100
;   use5D,1
;   relativeEdistances,0
;   allowEaxisZeroing,1
;   independentExtruderAxes,0
;   includeM10123,0
;   stickySupport,1
;   applyToolheadOffsets,0
;   gcodeXoffset,0
;   gcodeYoffset,0
;   gcodeZoffset,0
;   overrideMachineDefinition,1
;   machineTypeOverride,0
;   strokeXoverride,212
;   strokeYoverride,305
;   strokeZoverride,220
;   originOffsetXoverride,0
;   originOffsetYoverride,0
;   originOffsetZoverride,0
;   homeXdirOverride,-1
;   homeYdirOverride,-1
;   homeZdirOverride,-1
;   flipXoverride,1
;   flipYoverride,-1
;   flipZoverride,1
;   toolheadOffsets,0,0|0,0|0,0|0,0|0,0|0,0
;   overrideFirmwareConfiguration,0
;   firmwareTypeOverride,RepRap (Marlin/Repetier/Sprinter)
;   GPXconfigOverride,r2
;   baudRateOverride,115200
;   overridePrinterModels,0
;   printerModelsOverride
;   startingGcode,G28 ; home all axes,G1 Z30 F3000,M106 S1 [Enciende ventilador de capa],M140 S[bed1_temperature],M104 S[extruder0_temperature],M109 S[extruder0_temperature],G29 S1,G92 E0,M106 S0 (Apaga Ventilador de capa ],G1 X0 Y0 Z0.2 F3000 ; go outside printing area,G1 X60.0 E9.0  F1000.0 ; intro line,G1 X100.0 E12.5  F1000.0 ; intro line,G92 E0
;   layerChangeGcode,
;   retractionGcode,
;   toolChangeGcode,
;   endingGcode,G28 Y0 X0 ,M104 S0 ; turn off extruder,M140 S0 ; turn off bed,M84 ; disable motors,M107 ; turn off fan,
;   exportFileFormat,gcode
;   celebration,0
;   celebrationSong,Star Wars
;   postProcessing,
;   defaultSpeed,4200
;   outlineUnderspeed,0.4
;   solidInfillUnderspeed,0.6
;   supportUnderspeed,0.7
;   rapidXYspeed,6000
;   rapidZspeed,900
;   minBridgingArea,50
;   bridgingExtraInflation,1
;   bridgingExtrusionMultiplier,0.8
;   bridgingSpeedMultiplier,1.2
;   useFixedBridgingAngle,0
;   fixedBridgingAngle,0
;   applyBridgingToPerimeters,0
;   filamentDiameters,1.75|1.75|1.75|1.75|1.75|1.75
;   filamentPricesPerKg,16|16|16|16|16|16
;   filamentDensities,1.25|1.25|1.25|1.25|1.25|1.25
;   useMinPrintHeight,0
;   minPrintHeight,0
;   useMaxPrintHeight,0
;   maxPrintHeight,50
;   useDiaphragm,0
;   diaphragmLayerInterval,20
;   robustSlicing,1
;   mergeAllIntoSolid,0
;   onlyRetractWhenCrossingOutline,1
;   retractBetweenLayers,1
;   useRetractionMinTravel,1
;   retractionMinTravel,3
;   retractWhileWiping,1
;   onlyWipeOutlines,1
;   avoidCrossingOutline,1
;   maxMovementDetourFactor,5
;   toolChangeRetractionDistance,12
;   toolChangeExtraRestartDistance,-0.5
;   toolChangeRetractionSpeed,600
;   externalThinWallType,0
;   internalThinWallType,1
;   thinWallAllowedOverlapPercentage,10
;   singleExtrusionMinLength,1
;   singleExtrusionMinPrintingWidthPercentage,50
;   singleExtrusionMaxPrintingWidthPercentage,200
;   singleExtrusionEndpointExtension,0.2
;   horizontalSizeCompensation,0
G90
M82
G28 ; home all axes
G1 Z30 F3000
M106 S1 [Enciende ventilador de capa]
M140 S70
M104 S240
M109 S240
G29 S1
G92 E0
M106 S0 (Apaga Ventilador de capa ]
G1 X0 Y0 Z0.2 F3000 ; go outside printing area
G1 X60.0 E9.0  F1000.0 ; intro line
G1 X100.0 E12.5  F1000.0 ; intro line
G92 E0
G92 E0
G1 E-1.3000 F1800
G1 Z0.180 F900
; process Process1
; layer 1, Z = 0.180
M106 S0
T0
; tool H0.200 W0.408
; skirt
G1 X75.463 Y111.383 F6000
G1 E0.0000 F540
G92 E0
G1 X75.542 Y111.351 E0.0031 F2100
G1 X78.376 Y111.351 E0.1041
G1 X79.545 Y110.181 E0.1631
G1 X79.624 Y110.149 E0.1661
G1 X81.890 Y110.149 E0.2470
G1 X82.322 Y109.717 E0.2687
G1 X82.401 Y109.684 E0.2718
G1 X84.408 Y109.684 E0.3434
G1 X84.555 Y109.537 E0.3508
G1 X84.634 Y109.504 E0.3538
G1 X91.685 Y109.504 E0.6053
G1 X91.764 Y109.537 E0.6084
G1 X92.518 Y110.291 E0.6464
G1 X94.867 Y110.291 E0.7301
G1 X94.946 Y110.324 E0.7332
G1 X95.233 Y110.611 E0.7477
G1 X95.678 Y110.611 E0.7636
G1 X95.893 Y110.395 E0.7744
G1 X95.972 Y110.362 E0.7775
G1 X103.023 Y110.362 E1.0290
G1 X103.102 Y110.395 E1.0320
G1 X105.503 Y110.396 E1.1176
G1 X105.582 Y110.429 E1.1206
G1 X107.400 Y112.246 E1.2123
G1 X107.432 Y112.325 E1.2154
G1 X107.432 Y113.065 E1.2418
G1 X109.505 Y113.065 E1.3157
G1 X109.584 Y113.098 E1.3188
G1 X111.402 Y114.916 E1.4104
G1 X111.435 Y114.995 E1.4135
G1 X111.435 Y122.005 E1.6635
G1 X111.402 Y122.084 E1.6666
G1 X111.001 Y122.486 E1.6868
G1 X111.001 Y122.514 E1.6878
G1 X111.402 Y122.916 E1.7081
G1 X111.435 Y122.995 E1.7111
G1 X111.435 Y134.005 E2.1038
G1 X111.402 Y134.084 E2.1069
G1 X111.031 Y134.455 E2.1256
G1 X111.031 Y137.758 E2.2434
G1 X110.999 Y137.837 E2.2464
G1 X110.719 Y138.117 E2.2606
G1 X111.073 Y141.051 E2.3660
G1 X111.891 Y145.055 E2.5117
G1 X113.031 Y148.980 E2.6575
G1 X114.486 Y152.798 E2.8032
G1 X116.247 Y156.487 E2.9490
G1 X118.300 Y160.020 E3.0947
G1 X120.634 Y163.375 E3.2405
G1 X123.232 Y166.530 E3.3863
G1 X126.078 Y169.463 E3.5320
G1 X129.152 Y172.156 E3.6778
G1 X133.133 Y175.107 E3.8545
G1 X133.165 Y175.145 E3.8563
G1 X133.828 Y176.463 E3.9089
G1 X133.840 Y176.512 E3.9107
G1 X133.840 Y191.535 E4.4465
G1 X133.807 Y191.614 E4.4496
G1 X131.989 Y193.432 E4.5413
G1 X131.910 Y193.465 E4.5443
G1 X79.340 Y193.465 E6.4193
G1 X79.261 Y193.432 E6.4223
G1 X77.443 Y191.614 E6.5140
G1 X77.410 Y191.535 E6.5170
G1 X77.410 Y176.087 E7.0680
G1 X77.437 Y176.014 E7.0708
G1 X78.966 Y174.261 E7.1537
G1 X79.034 Y174.224 E7.1565
G1 X82.956 Y173.683 E7.2977
G1 X85.485 Y173.033 E7.3908
G1 X87.922 Y172.098 E7.4840
G1 X90.237 Y170.890 E7.5771
G1 X92.399 Y169.425 E7.6702
G1 X94.378 Y167.722 E7.7633
G1 X96.150 Y165.804 E7.8565
G1 X97.690 Y163.695 E7.9496
G1 X98.979 Y161.425 E8.0427
G1 X100.000 Y159.021 E8.1358
G1 X100.660 Y156.786 E8.2190
G1 X100.660 Y138.342 E8.8768
G1 X100.154 Y137.837 E8.9023
G1 X100.121 Y137.758 E8.9053
G1 X100.121 Y134.001 E9.0393
G1 X100.088 Y134.015 E9.0406
G1 X99.431 Y134.015 E9.0640
G1 X99.402 Y134.084 E9.0667
G1 X97.584 Y135.902 E9.1584
G1 X97.505 Y135.935 E9.1615
G1 X78.495 Y135.935 E9.8395
G1 X78.416 Y135.902 E9.8425
G1 X76.598 Y134.084 E9.9342
G1 X76.577 Y134.035 E9.9361
G1 X75.568 Y134.035 E9.9721
G1 X75.489 Y134.002 E9.9752
G1 X73.671 Y132.184 E10.0669
G1 X73.638 Y132.105 E10.0699
G1 X73.638 Y130.817 E10.1159
G1 X73.574 Y130.753 E10.1191
G1 X73.541 Y130.674 E10.1222
G1 X73.541 Y123.623 E10.3736
G1 X73.574 Y123.544 E10.3767
G1 X73.629 Y123.489 E10.3795
G1 X73.629 Y120.372 E10.4907
G1 X73.613 Y120.331 E10.4922
G1 X73.613 Y113.280 E10.7437
G1 X73.645 Y113.201 E10.7467
G1 X75.252 Y111.595 E10.8278
G1 X75.463 Y111.383 F2100
G92 E0
G1 E-1.3000 F1800
; inner perimeter
G1 X104.075 Y137.443 F6000
G1 X104.075 Y137.479 F6000
G1 X104.488 Y137.856 F6000
G1 E0.0000 F1800
G92 E0
G1 X106.832 Y137.856 E0.0836 F1470
G1 X107.291 Y141.665 E0.2204
G1 X108.172 Y145.974 E0.3773
G1 X109.399 Y150.197 E0.5341
G1 X110.965 Y154.307 E0.6910
G1 X112.859 Y158.276 E0.8479
G1 X115.069 Y162.078 E1.0047
G1 X117.581 Y165.689 E1.1616
G1 X120.377 Y169.083 E1.3184
G1 X123.439 Y172.240 E1.4753
G1 X126.747 Y175.137 E1.6321
G1 X130.012 Y177.558 E1.7771
G1 X130.012 Y181.637 E1.9226
G1 X81.238 Y181.637 E3.6621
G1 X81.238 Y177.784 E3.7995
G1 X83.696 Y177.445 E3.8880
G1 X86.650 Y176.686 E3.9968
G1 X89.499 Y175.593 E4.1056
G1 X92.203 Y174.182 E4.2144
G1 X94.728 Y172.470 E4.3232
G1 X97.041 Y170.480 E4.4320
G1 X99.111 Y168.239 E4.5408
G1 X100.911 Y165.776 E4.6496
G1 X102.417 Y163.123 E4.7584
G1 X103.609 Y160.316 E4.8672
G1 X104.488 Y157.338 E4.9780
G1 X104.488 Y138.156 E5.6621
G1 X104.488 Y137.856 F1470
; outer perimeter
G1 X104.079 Y137.447 F6000
G92 E0
G1 X107.194 Y137.447 E0.1111 F840
G1 X107.695 Y141.599 E0.2603
G1 X108.569 Y145.876 E0.4159
G1 X109.787 Y150.067 E0.5716
G1 X111.341 Y154.146 E0.7273
G1 X113.221 Y158.085 E0.8829
G1 X115.414 Y161.859 E1.0386
G1 X117.906 Y165.442 E1.1943
G1 X120.681 Y168.811 E1.3499
G1 X123.721 Y171.943 E1.5056
G1 X127.004 Y174.819 E1.6613
G1 X130.421 Y177.353 E1.8130
G1 X130.421 Y182.046 E1.9804
G1 X80.829 Y182.046 E3.7490
G1 X80.829 Y177.428 E3.9137
G1 X83.617 Y177.044 E4.0141
G1 X86.526 Y176.296 E4.1212
G1 X89.330 Y175.220 E4.2284
G1 X91.993 Y173.830 E4.3355
G1 X94.480 Y172.145 E4.4426
G1 X96.757 Y170.186 E4.5497
G1 X98.795 Y167.980 E4.6569
G1 X100.567 Y165.554 E4.7640
G1 X102.050 Y162.942 E4.8711
G1 X103.224 Y160.177 E4.9783
G1 X104.079 Y157.279 E5.0860
G1 X104.079 Y137.747 E5.7826
G1 X104.079 Y137.447 F840
G1 X107.113 Y137.447 F4200
; solid layer
G1 X106.105 Y138.162 F6000
G92 E0
G1 X106.623 Y138.680 E0.0261 F1260
G1 X106.702 Y139.337 E0.0497
G1 X105.527 Y138.162 E0.1090
G1 X104.949 Y138.162 E0.1296
G1 X106.781 Y139.994 E0.2220
G1 X106.860 Y140.651 E0.2456
G1 X104.794 Y138.585 E0.3498
G1 X104.794 Y139.162 E0.3704
G1 X106.940 Y141.308 E0.4786
G1 X106.989 Y141.714 E0.4932
G1 X107.045 Y141.991 E0.5033
G1 X104.794 Y139.740 E0.6169
G1 X104.794 Y140.318 E0.6375
G1 X107.194 Y142.717 E0.7585
G1 X107.342 Y143.443 E0.7849
G1 X104.794 Y140.895 E0.9135
G1 X104.794 Y141.473 E0.9341
G1 X107.490 Y144.169 E1.0701
G1 X107.639 Y144.896 E1.0965
G1 X104.794 Y142.051 E1.2400
G1 X104.794 Y142.629 E1.2606
G1 X107.787 Y145.622 E1.4115
G1 X107.874 Y146.047 E1.4270
G1 X107.972 Y146.384 E1.4396
G1 X104.794 Y143.206 E1.5998
G1 X104.794 Y143.784 E1.6204
G1 X108.209 Y147.198 E1.7927
G1 X108.445 Y148.013 E1.8229
G1 X104.794 Y144.362 E2.0071
G1 X104.794 Y144.939 E2.0277
G1 X108.682 Y148.827 E2.2238
G1 X108.919 Y149.641 E2.2540
G1 X104.794 Y145.517 E2.4620
G1 X104.794 Y146.095 E2.4826
G1 X109.179 Y150.479 E2.7038
G1 X109.534 Y151.413 E2.7394
G1 X104.794 Y146.672 E2.9785
G1 X104.794 Y147.250 E2.9991
G1 X109.890 Y152.346 E3.2561
G1 X110.246 Y153.279 E3.2918
G1 X104.794 Y147.828 E3.5667
G1 X104.794 Y148.406 E3.5873
G1 X110.601 Y154.213 E3.8802
G1 X110.683 Y154.428 E3.8884
G1 X111.089 Y155.278 E3.9220
G1 X104.794 Y148.983 E4.2395
G1 X104.794 Y149.561 E4.2601
G1 X111.616 Y156.383 E4.6042
G1 X112.144 Y157.488 E4.6479
G1 X104.794 Y150.139 E5.0186
G1 X104.794 Y150.716 E5.0392
G1 X112.714 Y158.637 E5.4387
G1 X113.516 Y160.016 E5.4956
G1 X104.794 Y151.294 E5.9355
G1 X104.794 Y151.872 E5.9561
G1 X114.318 Y161.396 E6.4365
G1 X114.811 Y162.243 E6.4715
G1 X115.320 Y162.976 E6.5033
G1 X104.794 Y152.450 E7.0342
G1 X104.794 Y153.027 E7.0548
G1 X116.640 Y164.873 E7.6523
G1 X117.336 Y165.874 E7.6958
G1 X118.612 Y167.423 E7.7674
G1 X104.794 Y153.605 E8.4643
G1 X104.794 Y154.183 E8.4849
G1 X129.706 Y179.094 E9.7414
G1 X129.706 Y179.672 E9.7620
G1 X104.794 Y154.760 E11.0185
G1 X104.794 Y155.338 E11.0391
G1 X129.706 Y180.250 E12.2956
G1 X129.706 Y180.828 E12.3162
G1 X104.794 Y155.916 E13.5727
G1 X104.794 Y156.493 E13.5934
G1 X129.632 Y181.331 E14.8461
G1 X129.054 Y181.331 E14.8667
G1 X104.794 Y157.071 E16.0903
G1 X104.794 Y157.383 E16.1014
G1 X104.733 Y157.588 E16.1091
G1 X128.476 Y181.331 E17.3066
G1 X127.898 Y181.331 E17.3272
G1 X104.602 Y158.034 E18.5023
G1 X104.470 Y158.480 E18.5189
G1 X127.321 Y181.331 E19.6714
G1 X126.743 Y181.331 E19.6920
G1 X104.339 Y158.926 E20.8220
G1 X104.207 Y159.373 E20.8386
G1 X126.165 Y181.331 E21.9462
G1 X125.588 Y181.331 E21.9668
G1 X104.075 Y159.819 E23.0518
G1 X103.944 Y160.265 E23.0684
G1 X125.010 Y181.331 E24.1309
G1 X124.432 Y181.331 E24.1515
G1 X103.786 Y160.684 E25.1929
G1 X103.613 Y161.090 E25.2086
G1 X123.854 Y181.331 E26.2296
G1 X123.277 Y181.331 E26.2502
G1 X103.441 Y161.495 E27.2507
G1 X103.269 Y161.901 E27.2664
G1 X122.699 Y181.331 E28.2464
G1 X122.121 Y181.331 E28.2670
G1 X103.097 Y162.306 E29.2266
G1 X102.924 Y162.712 E29.2423
G1 X121.544 Y181.331 E30.1814
G1 X120.966 Y181.331 E30.2020
G1 X102.752 Y163.117 E31.1207
G1 X102.692 Y163.259 E31.1262
G1 X102.556 Y163.499 E31.1360
G1 X120.388 Y181.331 E32.0354
G1 X119.811 Y181.331 E32.0561
G1 X102.347 Y163.867 E32.9369
G1 X102.138 Y164.236 E32.9520
G1 X119.233 Y181.331 E33.8143
G1 X118.655 Y181.331 E33.8349
G1 X101.928 Y164.604 E34.6785
G1 X101.719 Y164.973 E34.6937
G1 X118.077 Y181.331 E35.5187
G1 X117.500 Y181.331 E35.5393
G1 X101.510 Y165.341 E36.3458
G1 X101.301 Y165.710 E36.3610
G1 X116.922 Y181.331 E37.1489
G1 X116.344 Y181.331 E37.1695
G1 X101.079 Y166.065 E37.9394
G1 X100.835 Y166.399 E37.9542
G1 X115.767 Y181.331 E38.7073
G1 X115.189 Y181.331 E38.7279
G1 X100.591 Y166.733 E39.4642
G1 X100.347 Y167.067 E39.4790
G1 X114.611 Y181.331 E40.1984
G1 X114.033 Y181.331 E40.2190
G1 X100.103 Y167.401 E40.9216
G1 X99.859 Y167.734 E40.9364
G1 X113.456 Y181.331 E41.6222
G1 X112.878 Y181.331 E41.6428
G1 X99.615 Y168.068 E42.3117
G1 X99.371 Y168.402 E42.3265
G1 X112.300 Y181.331 E42.9786
G1 X111.723 Y181.331 E42.9992
G1 X99.097 Y168.706 E43.6360
G1 X98.820 Y169.006 E43.6506
G1 X111.145 Y181.331 E44.2722
G1 X110.567 Y181.331 E44.2928
G1 X98.543 Y169.306 E44.8993
G1 X98.265 Y169.607 E44.9139
G1 X109.990 Y181.331 E45.5053
G1 X109.412 Y181.331 E45.5259
G1 X97.988 Y169.907 E46.1021
G1 X97.710 Y170.207 E46.1166
G1 X108.834 Y181.331 E46.6777
G1 X108.256 Y181.331 E46.6983
G1 X97.433 Y170.508 E47.2442
G1 X97.254 Y170.701 E47.2536
G1 X97.144 Y170.796 E47.2588
G1 X107.679 Y181.331 E47.7902
G1 X107.101 Y181.331 E47.8108
G1 X96.833 Y171.063 E48.3287
G1 X96.523 Y171.330 E48.3433
G1 X106.523 Y181.331 E48.8477
G1 X105.946 Y181.331 E48.8683
G1 X96.212 Y171.597 E49.3592
G1 X95.902 Y171.865 E49.3738
