; G-Code generated by Simplify3D(R) Version 4.1.2
; Jun 27, 2019 at 6:34:33 PM
; Settings Summary
;   processName,Process1
;   applyToModels,xyzCalibration_cube
;   profileName,P3Steel 300x200 DUET3D (modified)
;   profileVersion,2019-05-20 11:07:07
;   baseProfile,Default
;   printMaterial,PLA
;   printQuality,Medium
;   printExtruders,
;   extruderName,Primary Extruder
;   extruderToolheadNumber,0
;   extruderDiameter,0.4
;   extruderAutoWidth,1
;   extruderWidth,0.48
;   extrusionMultiplier,0.95
;   extruderUseRetract,1
;   extruderRetractionDistance,1.9
;   extruderExtraRestartDistance,0
;   extruderRetractionZLift,0.4
;   extruderRetractionSpeed,2400
;   extruderUseCoasting,0
;   extruderCoastingDistance,0.3
;   extruderUseWipe,1
;   extruderWipeDistance,1.5
;   primaryExtruder,0
;   layerHeight,0.2
;   topSolidLayers,3
;   bottomSolidLayers,3
;   perimeterOutlines,2
;   printPerimetersInsideOut,1
;   startPointOption,3
;   startPointOriginX,100
;   startPointOriginY,300
;   sequentialIslands,0
;   spiralVaseMode,0
;   firstLayerHeightPercentage,125
;   firstLayerWidthPercentage,95
;   firstLayerUnderspeed,0.5
;   useRaft,0
;   raftExtruder,0
;   raftTopLayers,1
;   raftBaseLayers,1
;   raftOffset,3
;   raftSeparationDistance,0.14
;   raftTopInfill,100
;   aboveRaftSpeedMultiplier,0.3
;   useSkirt,1
;   skirtExtruder,0
;   skirtLayers,1
;   skirtOutlines,1
;   skirtOffset,3
;   usePrimePillar,0
;   primePillarExtruder,999
;   primePillarWidth,12
;   primePillarLocation,7
;   primePillarSpeedMultiplier,1
;   useOozeShield,0
;   oozeShieldExtruder,999
;   oozeShieldOffset,2
;   oozeShieldOutlines,1
;   oozeShieldSidewallShape,1
;   oozeShieldSidewallAngle,30
;   oozeShieldSpeedMultiplier,1
;   infillExtruder,0
;   internalInfillPattern,Rectilinear
;   externalInfillPattern,Rectilinear
;   infillPercentage,15
;   outlineOverlapPercentage,25
;   infillExtrusionWidthPercentage,100
;   minInfillLength,2
;   infillLayerInterval,1
;   internalInfillAngles,45,-45
;   overlapInternalInfillAngles,0
;   externalInfillAngles,45,-45
;   generateSupport,1
;   supportExtruder,0
;   supportInfillPercentage,45
;   supportExtraInflation,0
;   supportBaseLayers,0
;   denseSupportExtruder,0
;   denseSupportLayers,0
;   denseSupportInfillPercentage,70
;   supportLayerInterval,1
;   supportHorizontalPartOffset,0.3
;   supportUpperSeparationLayers,1
;   supportLowerSeparationLayers,1
;   supportType,0
;   supportGridSpacing,4
;   maxOverhangAngle,89
;   supportAngles,0
;   temperatureName,Primary Extruder,Heated Bed
;   temperatureNumber,0,1
;   temperatureSetpointCount,1,1
;   temperatureSetpointLayers,1,1
;   temperatureSetpointTemperatures,205,50
;   temperatureStabilizeAtStartup,1,1
;   temperatureHeatedBed,0,1
;   fanLayers,1,2
;   fanSpeeds,0,100
;   blipFanToFullPower,0
;   adjustSpeedForCooling,1
;   minSpeedLayerTime,15
;   minCoolingSpeedSlowdown,20
;   increaseFanForCooling,0
;   minFanLayerTime,45
;   maxCoolingFanSpeed,100
;   increaseFanForBridging,0
;   bridgingFanSpeed,100
;   use5D,1
;   relativeEdistances,0
;   allowEaxisZeroing,1
;   independentExtruderAxes,0
;   includeM10123,0
;   stickySupport,1
;   applyToolheadOffsets,0
;   gcodeXoffset,0
;   gcodeYoffset,0
;   gcodeZoffset,0
;   overrideMachineDefinition,1
;   machineTypeOverride,0
;   strokeXoverride,212
;   strokeYoverride,305
;   strokeZoverride,220
;   originOffsetXoverride,0
;   originOffsetYoverride,0
;   originOffsetZoverride,0
;   homeXdirOverride,-1
;   homeYdirOverride,-1
;   homeZdirOverride,-1
;   flipXoverride,1
;   flipYoverride,-1
;   flipZoverride,1
;   toolheadOffsets,0,0|0,0|0,0|0,0|0,0|0,0
;   overrideFirmwareConfiguration,0
;   firmwareTypeOverride,RepRap (Marlin/Repetier/Sprinter)
;   GPXconfigOverride,r2
;   baudRateOverride,115200
;   overridePrinterModels,0
;   printerModelsOverride
;   startingGcode,G28 ; home all axes,G1 Z30 F3000,M106 S1 [Enciende ventilador de capa],M140 S[bed1_temperature],M104 S[extruder0_temperature],M109 S[extruder0_temperature],G29 S1,G92 E0,M106 S0 (Apaga Ventilador de capa ],G1 X0 Y0 Z0.2 F3000 ; go outside printing area,G1 X60.0 E9.0  F1000.0 ; intro line,G1 X100.0 E12.5  F1000.0 ; intro line,G92 E0
;   layerChangeGcode,
;   retractionGcode,
;   toolChangeGcode,
;   endingGcode,G28 Y0 X0 ,M104 S0 ; turn off extruder,M140 S0 ; turn off bed,M84 ; disable motors,M107 ; turn off fan,
;   exportFileFormat,gcode
;   celebration,0
;   celebrationSong,Star Wars
;   postProcessing,
;   defaultSpeed,3900
;   outlineUnderspeed,0.4
;   solidInfillUnderspeed,0.6
;   supportUnderspeed,0.7
;   rapidXYspeed,6000
;   rapidZspeed,900
;   minBridgingArea,50
;   bridgingExtraInflation,1
;   bridgingExtrusionMultiplier,0.8
;   bridgingSpeedMultiplier,1.2
;   useFixedBridgingAngle,0
;   fixedBridgingAngle,0
;   applyBridgingToPerimeters,0
;   filamentDiameters,1.75|1.75|1.75|1.75|1.75|1.75
;   filamentPricesPerKg,16|16|16|16|16|16
;   filamentDensities,1.25|1.25|1.25|1.25|1.25|1.25
;   useMinPrintHeight,0
;   minPrintHeight,0
;   useMaxPrintHeight,0
;   maxPrintHeight,50
;   useDiaphragm,0
;   diaphragmLayerInterval,20
;   robustSlicing,1
;   mergeAllIntoSolid,0
;   onlyRetractWhenCrossingOutline,1
;   retractBetweenLayers,1
;   useRetractionMinTravel,1
;   retractionMinTravel,3
;   retractWhileWiping,1
;   onlyWipeOutlines,1
;   avoidCrossingOutline,1
;   maxMovementDetourFactor,5
;   toolChangeRetractionDistance,12
;   toolChangeExtraRestartDistance,-0.5
;   toolChangeRetractionSpeed,600
;   externalThinWallType,0
;   internalThinWallType,1
;   thinWallAllowedOverlapPercentage,10
;   singleExtrusionMinLength,1
;   singleExtrusionMinPrintingWidthPercentage,50
;   singleExtrusionMaxPrintingWidthPercentage,200
;   singleExtrusionEndpointExtension,0.2
;   horizontalSizeCompensation,0
G90
M82
M106 S0
G28 ; home all axes
G1 Z30 F3000
M106 S1 [Enciende ventilador de capa]
M140 S50
M104 S205
M109 S205
G29 S1
G92 E0
M106 S0 (Apaga Ventilador de capa ]
G1 X0 Y0 Z0.2 F3000 ; go outside printing area
G1 X60.0 E9.0  F1000.0 ; intro line
G1 X100.0 E12.5  F1000.0 ; intro line
G92 E0
; process Process1
; layer 1, Z = 0.250
T0
G92 E0.0000
G1 E-1.9000 F2400
; feature skirt
; tool H0.250 W0.456
G1 Z0.400 F900
G1 X94.663 Y165.728 F6000
G1 Z0.250 F900
G1 E0.0000 F2400
G92 E0.0000
G1 X92.772 Y163.837 E0.1204 F1950
G1 X92.772 Y141.163 E1.1413
G1 X94.663 Y139.272 E1.2617
G1 X117.337 Y139.272 E2.2827
G1 X119.228 Y141.163 E2.4031
G1 X119.228 Y163.837 E3.4240
G1 X117.337 Y165.728 E3.5444
G1 X94.663 Y165.728 E4.5653
G92 E0.0000
G1 E-1.9000 F2400
; feature inner perimeter
G1 Z0.650 F900
G1 X96.228 Y162.272 F6000
G1 X96.448 Y162.272
G1 X96.684 Y161.816
G1 Z0.250 F900
G1 E0.0000 F2400
G92 E0.0000
G1 X96.684 Y143.184 E0.8389 F1365
G1 X115.316 Y143.184 E1.6778
G1 X115.316 Y161.816 E2.5168
G1 X96.684 Y161.816 E3.3557
; feature outer perimeter
G1 X96.228 Y162.272 F6000
G92 E0.0000
G1 X96.228 Y142.728 E0.8800 F780
G1 X115.772 Y142.728 E1.7600
G1 X115.772 Y162.272 E2.6400
G1 X96.228 Y162.272 E3.5199
G1 X96.228 Y160.772 F780
; feature solid layer
G1 X97.562 Y161.474 F6000
G92 E0.0000
G1 X97.026 Y160.938 E0.0341 F1170
G1 X97.026 Y160.293 E0.0632
G1 X98.207 Y161.474 E0.1384
G1 X98.852 Y161.474 E0.1674
G1 X97.026 Y159.648 E0.2837
G1 X97.026 Y159.003 E0.3127
G1 X99.497 Y161.474 E0.4701
G1 X100.142 Y161.474 E0.4991
G1 X97.026 Y158.358 E0.6975
G1 X97.026 Y157.713 E0.7265
G1 X100.787 Y161.474 E0.9660
G1 X101.432 Y161.474 E0.9950
G1 X97.026 Y157.068 E1.2756
G1 X97.026 Y156.424 E1.3046
G1 X102.076 Y161.474 E1.6262
G1 X102.721 Y161.474 E1.6552
G1 X97.026 Y155.779 E2.0179
G1 X97.026 Y155.134 E2.0469
G1 X103.366 Y161.474 E2.4506
G1 X104.011 Y161.474 E2.4797
G1 X97.026 Y154.489 E2.9244
G1 X97.026 Y153.844 E2.9535
G1 X104.656 Y161.474 E3.4393
G1 X105.301 Y161.474 E3.4684
G1 X97.026 Y153.199 E3.9953
G1 X97.026 Y152.554 E4.0243
G1 X105.946 Y161.474 E4.5923
G1 X106.591 Y161.474 E4.6213
G1 X97.026 Y151.909 E5.2304
G1 X97.026 Y151.265 E5.2594
G1 X107.235 Y161.474 E5.9095
G1 X107.880 Y161.474 E5.9385
G1 X97.026 Y150.620 E6.6297
G1 X97.026 Y149.975 E6.6587
G1 X108.525 Y161.474 E7.3909
G1 X109.170 Y161.474 E7.4200
G1 X97.026 Y149.330 E8.1933
G1 X97.026 Y148.685 E8.2223
G1 X109.815 Y161.474 E9.0367
G1 X110.460 Y161.474 E9.0657
G1 X97.026 Y148.040 E9.9211
G1 X97.026 Y147.395 E9.9502
G1 X111.105 Y161.474 E10.8466
G1 X111.750 Y161.474 E10.8757
G1 X97.026 Y146.750 E11.8132
G1 X97.026 Y146.106 E11.8423
G1 X112.394 Y161.474 E12.8209
G1 X113.039 Y161.474 E12.8499
G1 X97.026 Y145.461 E13.8696
G1 X97.026 Y144.816 E13.8986
G1 X113.684 Y161.474 E14.9593
G1 X114.329 Y161.474 E14.9884
G1 X97.026 Y144.171 E16.0902
G1 X97.026 Y143.526 E16.1192
G1 X114.974 Y161.474 E17.2621
G1 X114.974 Y160.829 E17.2911
G1 X97.671 Y143.526 E18.3929
G1 X98.316 Y143.526 E18.4219
G1 X114.974 Y160.184 E19.4827
G1 X114.974 Y159.539 E19.5117
G1 X98.961 Y143.526 E20.5314
G1 X99.606 Y143.526 E20.5604
G1 X114.974 Y158.894 E21.5390
G1 X114.974 Y158.250 E21.5681
G1 X100.250 Y143.526 E22.5056
G1 X100.895 Y143.526 E22.5346
G1 X114.974 Y157.605 E23.4311
G1 X114.974 Y156.960 E23.4602
G1 X101.540 Y143.526 E24.3156
G1 X102.185 Y143.526 E24.3446
G1 X114.974 Y156.315 E25.1590
G1 X114.974 Y155.670 E25.1880
G1 X102.830 Y143.526 E25.9613
G1 X103.475 Y143.526 E25.9903
G1 X114.974 Y155.025 E26.7225
G1 X114.974 Y154.380 E26.7516
G1 X104.120 Y143.526 E27.4427
G1 X104.765 Y143.526 E27.4718
G1 X114.974 Y153.735 E28.1219
G1 X114.974 Y153.091 E28.1509
G1 X105.409 Y143.526 E28.7599
G1 X106.054 Y143.526 E28.7890
G1 X114.974 Y152.446 E29.3569
G1 X114.974 Y151.801 E29.3860
G1 X106.699 Y143.526 E29.9129
G1 X107.344 Y143.526 E29.9419
G1 X114.974 Y151.156 E30.4278
G1 X114.974 Y150.511 E30.4568
G1 X107.989 Y143.526 E30.9016
G1 X108.634 Y143.526 E30.9306
G1 X114.974 Y149.866 E31.3343
G1 X114.974 Y149.221 E31.3634
G1 X109.279 Y143.526 E31.7260
G1 X109.924 Y143.526 E31.7551
G1 X114.974 Y148.576 E32.0766
G1 X114.974 Y147.931 E32.1057
G1 X110.569 Y143.526 E32.3862
G1 X111.213 Y143.526 E32.4152
G1 X114.974 Y147.287 E32.6547
G1 X114.974 Y146.642 E32.6837
G1 X111.858 Y143.526 E32.8821
G1 X112.503 Y143.526 E32.9112
G1 X114.974 Y145.997 E33.0685
G1 X114.974 Y145.352 E33.0975
G1 X113.148 Y143.526 E33.2138
G1 X113.793 Y143.526 E33.2428
G1 X114.974 Y144.707 E33.3181
G1 X114.974 Y144.062 E33.3471
G1 X114.438 Y143.526 E33.3812
G92 E0.0000
G1 E-1.9000 F2400
; layer 2, Z = 0.450
M106 S255
; feature inner perimeter
; tool H0.200 W0.480
G1 Z0.650 F900
G1 X96.720 Y161.780 F6000
G1 Z0.450 F900
G1 E0.0000 F2400
G92 E0.0000
G1 X96.720 Y143.220 E0.7037 F2730
G1 X115.280 Y143.220 E1.4075
G1 X115.280 Y161.780 E2.1112
G1 X96.720 Y161.780 E2.8149
; feature outer perimeter
G1 X96.240 Y162.260 F6000
G92 E0.0000
G1 X96.240 Y142.740 E0.7401 F1560
G1 X115.760 Y142.740 E1.4803
G1 X115.760 Y162.260 E2.2204
G1 X96.240 Y162.260 E2.9605
G1 X96.240 Y160.760 F1560
; feature solid layer
G1 X97.080 Y143.771 F6000
G92 E0.0000
G1 X97.271 Y143.580 E0.0102 F2340
G1 X97.949 Y143.580 E0.0360
G1 X97.080 Y144.449 E0.0826
G1 X97.080 Y145.128 E0.1083
G1 X98.628 Y143.580 E0.1913
G1 X99.307 Y143.580 E0.2171
G1 X97.080 Y145.807 E0.3365
G1 X97.080 Y146.486 E0.3622
G1 X99.986 Y143.580 E0.5181
G1 X100.665 Y143.580 E0.5438
G1 X97.080 Y147.165 E0.7360
G1 X97.080 Y147.844 E0.7618
G1 X101.344 Y143.580 E0.9904
G1 X102.022 Y143.580 E1.0161
G1 X97.080 Y148.522 E1.2812
G1 X97.080 Y149.201 E1.3069
G1 X102.701 Y143.580 E1.6083
G1 X103.380 Y143.580 E1.6341
G1 X97.080 Y149.880 E1.9719
G1 X97.080 Y150.559 E1.9976
G1 X104.059 Y143.580 E2.3718
G1 X104.738 Y143.580 E2.3976
G1 X97.080 Y151.238 E2.8082
G1 X97.080 Y151.917 E2.8339
G1 X105.417 Y143.580 E3.2810
G1 X106.095 Y143.580 E3.3067
G1 X97.080 Y152.595 E3.7901
G1 X97.080 Y153.274 E3.8159
G1 X106.774 Y143.580 E4.3357
G1 X107.453 Y143.580 E4.3614
G1 X97.080 Y153.953 E4.9176
G1 X97.080 Y154.632 E4.9434
G1 X108.132 Y143.580 E5.5360
G1 X108.811 Y143.580 E5.5617
G1 X97.080 Y155.311 E6.1908
G1 X97.080 Y155.989 E6.2165
G1 X109.489 Y143.580 E6.8819
G1 X110.168 Y143.580 E6.9077
G1 X97.080 Y156.668 E7.6095
G1 X97.080 Y157.347 E7.6352
G1 X110.847 Y143.580 E8.3734
G1 X111.526 Y143.580 E8.3992
G1 X97.080 Y158.026 E9.1738
G1 X97.080 Y158.705 E9.1995
G1 X112.205 Y143.580 E10.0106
G1 X112.884 Y143.580 E10.0363
G1 X97.080 Y159.384 E10.8837
G1 X97.080 Y160.062 E10.9094
G1 X113.562 Y143.580 E11.7933
G1 X114.241 Y143.580 E11.8190
G1 X97.080 Y160.741 E12.7392
G1 X97.080 Y161.420 E12.7650
G1 X114.920 Y143.580 E13.7216
G1 X114.920 Y144.259 E13.7473
G1 X97.759 Y161.420 E14.6675
G1 X98.438 Y161.420 E14.6933
G1 X114.920 Y144.938 E15.5771
G1 X114.920 Y145.617 E15.6028
G1 X99.117 Y161.420 E16.4502
G1 X99.795 Y161.420 E16.4760
G1 X114.920 Y146.295 E17.2870
G1 X114.920 Y146.974 E17.3127
G1 X100.474 Y161.420 E18.0874
G1 X101.153 Y161.420 E18.1131
G1 X114.920 Y147.653 E18.8513
G1 X114.920 Y148.332 E18.8771
G1 X101.832 Y161.420 E19.5789
G1 X102.511 Y161.420 E19.6046
G1 X114.920 Y149.011 E20.2700
G1 X114.920 Y149.689 E20.2958
G1 X103.189 Y161.420 E20.9248
G1 X103.868 Y161.420 E20.9505
G1 X114.920 Y150.368 E21.5431
G1 X114.920 Y151.047 E21.5689
G1 X104.547 Y161.420 E22.1251
G1 X105.226 Y161.420 E22.1508
G1 X114.920 Y151.726 E22.6707
G1 X114.920 Y152.405 E22.6964
G1 X105.905 Y161.420 E23.1798
G1 X106.584 Y161.420 E23.2055
G1 X114.920 Y153.084 E23.6526
G1 X114.920 Y153.762 E23.6783
G1 X107.262 Y161.420 E24.0889
G1 X107.941 Y161.420 E24.1147
G1 X114.920 Y154.441 E24.4889
G1 X114.920 Y155.120 E24.5146
G1 X108.620 Y161.420 E24.8524
G1 X109.299 Y161.420 E24.8782
G1 X114.920 Y155.799 E25.1796
G1 X114.920 Y156.478 E25.2053
G1 X109.978 Y161.420 E25.4704
G1 X110.656 Y161.420 E25.4961
G1 X114.920 Y157.156 E25.7247
G1 X114.920 Y157.835 E25.7504
G1 X111.335 Y161.420 E25.9427
G1 X112.014 Y161.420 E25.9684
G1 X114.920 Y158.514 E26.1242
G1 X114.920 Y159.193 E26.1500
G1 X112.693 Y161.420 E26.2694
G1 X113.372 Y161.420 E26.2951
G1 X114.920 Y159.872 E26.3781
G1 X114.920 Y160.551 E26.4039
G1 X114.051 Y161.420 E26.4505
G1 X114.729 Y161.420 E26.4762
G1 X114.920 Y161.229 E26.4865
G92 E0.0000
G1 E-1.9000 F2400
; layer 3, Z = 0.650
; feature inner perimeter
G1 Z0.850 F900
G1 X96.720 Y161.780 F6000
G1 Z0.650 F900
G1 E0.0000 F2400
G92 E0.0000
G1 X96.720 Y143.220 E0.7037 F2730
G1 X115.280 Y143.220 E1.4075
G1 X115.280 Y161.780 E2.1112
G1 X96.720 Y161.780 E2.8149
; feature outer perimeter
G1 X96.240 Y162.260 F6000
G92 E0.0000
G1 X96.240 Y142.740 E0.7401 F1560
G1 X115.760 Y142.740 E1.4803
G1 X115.760 Y162.260 E2.2204
G1 X96.240 Y162.260 E2.9605
G1 X96.240 Y160.760 F1560
; feature solid layer
G1 X97.271 Y161.420 F6000
G92 E0.0000
G1 X97.080 Y161.229 E0.0102 F2340
G1 X97.080 Y160.551 E0.0360
G1 X97.949 Y161.420 E0.0826
G1 X98.628 Y161.420 E0.1083
G1 X97.080 Y159.872 E0.1913
G1 X97.080 Y159.193 E0.2171
G1 X99.307 Y161.420 E0.3365
G1 X99.986 Y161.420 E0.3622
G1 X97.080 Y158.514 E0.5181
G1 X97.080 Y157.835 E0.5438
G1 X100.665 Y161.420 E0.7360
G1 X101.344 Y161.420 E0.7618
G1 X97.080 Y157.156 E0.9904
G1 X97.080 Y156.478 E1.0161
G1 X102.022 Y161.420 E1.2811
G1 X102.701 Y161.420 E1.3069
G1 X97.080 Y155.799 E1.6083
G1 X97.080 Y155.120 E1.6340
G1 X103.380 Y161.420 E1.9719
G1 X104.059 Y161.420 E1.9976
G1 X97.080 Y154.441 E2.3718
G1 X97.080 Y153.762 E2.3976
G1 X104.738 Y161.420 E2.8082
G1 X105.416 Y161.420 E2.8339
G1 X97.080 Y153.084 E3.2809
G1 X97.080 Y152.405 E3.3067
G1 X106.095 Y161.420 E3.7901
G1 X106.774 Y161.420 E3.8158
G1 X97.080 Y151.726 E4.3357
G1 X97.080 Y151.047 E4.3614
G1 X107.453 Y161.420 E4.9176
G1 X108.132 Y161.420 E4.9434
G1 X97.080 Y150.368 E5.5360
G1 X97.080 Y149.689 E5.5617
G1 X108.811 Y161.420 E6.1907
G1 X109.489 Y161.420 E6.2165
G1 X97.080 Y149.011 E6.8819
G1 X97.080 Y148.332 E6.9076
G1 X110.168 Y161.420 E7.6094
G1 X110.847 Y161.420 E7.6352
G1 X97.080 Y147.653 E8.3734
G1 X97.080 Y146.974 E8.3991
G1 X111.526 Y161.420 E9.1738
G1 X112.205 Y161.420 E9.1995
G1 X97.080 Y146.295 E10.0105
G1 X97.080 Y145.616 E10.0363
G1 X112.884 Y161.420 E10.8837
G1 X113.562 Y161.420 E10.9094
G1 X97.080 Y144.938 E11.7932
G1 X97.080 Y144.259 E11.8190
G1 X114.241 Y161.420 E12.7392
G1 X114.920 Y161.420 E12.7649
